;FLAVOR:Marlin
;TIME:22729
;Filament used: 7.50502m
;Layer height: 0.12
;Generated with Cura_SteamEngine 3.1.0
M82 ; absolute extrusion mode
G28 ;Home
G29 ; AutoLevel
M140 S60 ; set the bed temperature and continue on
M104 S200; set the extruder temperature and continue on
M109 S200; set the extruder temperature and continue on
G1 Z15.0 F6000 ;Move the platform down 15mm
G92 E0
G1 F200 E3
G92 E0
;LAYER_COUNT:417
;LAYER:0
M107
G0 F1500 X76.374 Y82.008 Z0.2
;TYPE:SKIRT
G1 F750 X76.71 Y81.789 E0.01334
G1 X76.938 Y81.684 E0.02169
G1 X77.256 Y81.582 E0.0328
G1 X77.522 Y81.556 E0.04169
G1 X100.709 Y81.529 E0.81289
G1 X100.773 Y81.53 E0.81502
G1 X102.847 Y81.622 E0.88407
G1 X102.968 Y81.633 E0.88811
G1 X105.025 Y81.904 E0.95712
G1 X105.145 Y81.925 E0.96117
G1 X107.157 Y82.371 E1.02971
G1 X107.274 Y82.403 E1.03375
G1 X109.251 Y83.025 E1.10268
G1 X109.368 Y83.067 E1.10681
G1 X111.287 Y83.864 E1.17592
G1 X111.396 Y83.915 E1.17993
G1 X113.229 Y84.868 E1.24864
G1 X113.335 Y84.929 E1.25271
G1 X115.08 Y86.041 E1.32153
G1 X115.18 Y86.111 E1.32559
G1 X116.818 Y87.368 E1.39426
G1 X116.911 Y87.446 E1.3983
G1 X118.439 Y88.843 E1.46716
G1 X118.527 Y88.931 E1.4713
G1 X119.924 Y90.458 E1.54014
G1 X120.001 Y90.55 E1.54413
G1 X121.265 Y92.194 E1.6131
G1 X121.336 Y92.295 E1.61721
G1 X122.452 Y94.047 E1.68629
G1 X122.513 Y94.153 E1.69036
G1 X123.464 Y95.983 E1.75896
G1 X123.515 Y96.092 E1.76296
G1 X124.312 Y98.012 E1.8321
G1 X124.354 Y98.128 E1.83621
G1 X124.974 Y100.095 E1.9048
G1 X125.006 Y100.213 E1.90887
G1 X125.454 Y102.234 E1.97772
G1 X125.475 Y102.354 E1.98177
G1 X125.746 Y104.405 E2.05058
G1 X125.757 Y104.527 E2.05465
G1 X125.848 Y106.6 E2.12367
G1 X125.849 Y106.663 E2.12576
G1 X125.817 Y129.876 E2.89783
G1 X125.777 Y130.208 E2.90895
G1 X125.659 Y130.52 E2.92005
G1 X125.533 Y130.719 E2.92788
G1 X125.222 Y131.13 E2.94503
G1 X124.99 Y131.37 E2.95613
G1 X124.647 Y131.576 E2.96944
G1 X124.418 Y131.672 E2.97769
G1 X124.097 Y131.764 E2.9888
G1 X123.877 Y131.781 E2.99614
G1 X77.65 Y131.795 E4.53366
G1 X77.29 Y131.748 E4.54573
G1 X77.042 Y131.682 E4.55427
G1 X76.732 Y131.558 E4.56537
G1 X76.386 Y131.292 E4.57989
G1 X76.019 Y130.905 E4.59763
G1 X75.82 Y130.637 E4.60873
G1 X75.666 Y130.233 E4.62311
G1 X75.612 Y129.979 E4.63175
G1 X75.581 Y129.687 E4.64151
G1 X75.608 Y83.47 E6.1787
G1 X75.648 Y83.139 E6.18979
G1 X75.766 Y82.826 E6.20091
G1 X75.862 Y82.666 E6.20712
G1 X76.15 Y82.256 E6.22378
G1 X76.374 Y82.008 E6.2349
G0 F1500 X76.671 Y82.281
G1 F750 X76.878 Y82.153 E6.24299
G1 X77.106 Y82.048 E6.25134
G1 X77.376 Y81.967 E6.26072
G1 X77.523 Y81.956 E6.26562
G1 X100.71 Y81.929 E7.03682
G1 X100.755 Y81.93 E7.03832
G1 X102.829 Y82.022 E7.10737
G1 X102.916 Y82.03 E7.11027
G1 X104.973 Y82.301 E7.17928
G1 X105.058 Y82.316 E7.18215
G1 X107.07 Y82.762 E7.2507
G1 X107.154 Y82.784 E7.25358
G1 X109.131 Y83.406 E7.32252
G1 X109.215 Y83.436 E7.32548
G1 X111.134 Y84.233 E7.3946
G1 X111.211 Y84.27 E7.39744
G1 X113.044 Y85.223 E7.46615
G1 X113.12 Y85.267 E7.46907
G1 X114.865 Y86.379 E7.53789
G1 X114.937 Y86.429 E7.54081
G1 X116.575 Y87.686 E7.60948
G1 X116.641 Y87.741 E7.61234
G1 X118.169 Y89.138 E7.6812
G1 X118.232 Y89.201 E7.68416
G1 X119.629 Y90.728 E7.753
G1 X119.684 Y90.793 E7.75583
G1 X120.948 Y92.437 E7.8248
G1 X120.998 Y92.51 E7.82775
G1 X122.114 Y94.262 E7.89684
G1 X122.158 Y94.338 E7.89976
G1 X123.109 Y96.168 E7.96835
G1 X123.146 Y96.246 E7.97122
G1 X123.943 Y98.166 E8.04037
G1 X123.973 Y98.248 E8.04327
G1 X124.593 Y100.215 E8.11187
G1 X124.615 Y100.3 E8.11479
G1 X125.063 Y102.321 E8.18364
G1 X125.078 Y102.406 E8.18651
G1 X125.349 Y104.457 E8.25532
G1 X125.357 Y104.544 E8.25822
G1 X125.448 Y106.617 E8.32724
G1 X125.449 Y106.662 E8.32873
G1 X125.417 Y129.875 E9.1008
G1 X125.377 Y130.155 E9.11021
G1 X125.214 Y130.477 E9.12221
G1 X124.903 Y130.888 E9.13936
G1 X124.703 Y131.087 E9.14874
G1 X124.493 Y131.207 E9.15678
G1 X124.264 Y131.303 E9.16504
G1 X123.877 Y131.381 E9.17817
G1 X77.65 Y131.395 E10.71569
G1 X77.393 Y131.361 E10.72431
G1 X77.145 Y131.295 E10.73285
G1 X76.885 Y131.185 E10.74224
G1 X76.676 Y131.017 E10.75116
G1 X76.309 Y130.63 E10.7689
G1 X76.146 Y130.4 E10.77827
G1 X76.057 Y130.15 E10.7871
G1 X76.003 Y129.896 E10.79574
G1 X75.981 Y129.687 E10.80272
G1 X76.008 Y83.47 E12.33991
G1 X76.048 Y83.191 E12.34928
G1 X76.19 Y82.896 E12.36017
G1 X76.478 Y82.486 E12.37684
G1 X76.671 Y82.281 E12.3862
G0 F1500 X76.805 Y82.716
G1 F750 X77.045 Y82.516 E12.39659
G1 X77.273 Y82.411 E12.40494
G1 X77.523 Y82.356 E12.41346
G1 X100.71 Y82.329 E13.18466
G1 X100.738 Y82.33 E13.18559
G1 X102.812 Y82.422 E13.25464
G1 X102.863 Y82.426 E13.25634
G1 X104.92 Y82.697 E13.32535
G1 X104.972 Y82.706 E13.3271
G1 X106.984 Y83.152 E13.39565
G1 X107.034 Y83.166 E13.39737
G1 X109.011 Y83.788 E13.46631
G1 X109.061 Y83.806 E13.46807
G1 X110.98 Y84.603 E13.53719
G1 X111.027 Y84.625 E13.53891
G1 X112.86 Y85.578 E13.60763
G1 X112.905 Y85.604 E13.60935
G1 X114.65 Y86.716 E13.67818
G1 X114.693 Y86.746 E13.67992
G1 X116.331 Y88.003 E13.74859
G1 X116.371 Y88.036 E13.75032
G1 X117.899 Y89.433 E13.81918
G1 X117.937 Y89.471 E13.82097
G1 X119.334 Y90.998 E13.8898
G1 X119.367 Y91.037 E13.8915
G1 X120.631 Y92.681 E13.96047
G1 X120.661 Y92.725 E13.96225
G1 X121.777 Y94.477 E14.03134
G1 X121.803 Y94.522 E14.03306
G1 X122.754 Y96.352 E14.10166
G1 X122.776 Y96.399 E14.10338
G1 X123.573 Y98.319 E14.17253
G1 X123.591 Y98.369 E14.17429
G1 X124.211 Y100.336 E14.24289
G1 X124.225 Y100.386 E14.24462
G1 X124.673 Y102.407 E14.31347
G1 X124.682 Y102.458 E14.31519
G1 X124.953 Y104.509 E14.384
G1 X124.957 Y104.562 E14.38577
G1 X125.048 Y106.635 E14.45478
G1 X125.049 Y106.662 E14.45568
G1 X125.017 Y129.875 E15.22775
G1 X124.977 Y130.089 E15.23499
G1 X124.895 Y130.236 E15.24059
G1 X124.584 Y130.647 E15.25773
G1 X124.338 Y130.838 E15.26809
G1 X124.109 Y130.934 E15.27635
G1 X123.877 Y130.981 E15.28422
G1 X77.65 Y130.995 E16.82174
G1 X77.496 Y130.975 E16.8269
G1 X77.248 Y130.909 E16.83544
G1 X77.051 Y130.815 E16.8427
G1 X76.967 Y130.742 E16.8464
G1 X76.6 Y130.355 E16.86414
G1 X76.481 Y130.172 E16.8714
G1 X76.448 Y130.067 E16.87506
G1 X76.394 Y129.813 E16.8837
G1 X76.381 Y129.688 E16.88788
G1 X76.408 Y83.471 E18.42506
G1 X76.448 Y83.256 E18.43233
G1 X76.517 Y83.126 E18.43723
G1 X76.805 Y82.716 E18.45389
G0 F1500 X77.132 Y82.946
G1 F750 X77.212 Y82.879 E18.45736
G1 X77.44 Y82.774 E18.46571
G1 X77.524 Y82.756 E18.46857
G1 X100.711 Y82.729 E19.23977
G1 X100.72 Y82.729 E19.24007
G1 X102.794 Y82.821 E19.30912
G1 X102.811 Y82.823 E19.30969
G1 X104.868 Y83.094 E19.3787
G1 X104.885 Y83.097 E19.37927
G1 X106.897 Y83.543 E19.44782
G1 X106.914 Y83.547 E19.4484
G1 X108.891 Y84.169 E19.51733
G1 X108.908 Y84.175 E19.51793
G1 X110.827 Y84.972 E19.58704
G1 X110.842 Y84.98 E19.58761
G1 X112.675 Y85.933 E19.65632
G1 X112.69 Y85.941 E19.65689
G1 X114.435 Y87.053 E19.72571
G1 X114.45 Y87.063 E19.72631
G1 X116.088 Y88.32 E19.79498
G1 X116.101 Y88.331 E19.79555
G1 X117.629 Y89.728 E19.86441
G1 X117.642 Y89.741 E19.86502
G1 X119.039 Y91.268 E19.93386
G1 X119.05 Y91.281 E19.93442
G1 X120.314 Y92.925 E20.00339
G1 X120.324 Y92.94 E20.00399
G1 X121.44 Y94.692 E20.07308
G1 X121.448 Y94.707 E20.07365
G1 X122.399 Y96.537 E20.14224
G1 X122.407 Y96.552 E20.14281
G1 X123.204 Y98.472 E20.21195
G1 X123.21 Y98.489 E20.21255
G1 X123.83 Y100.456 E20.28115
G1 X123.834 Y100.473 E20.28173
G1 X124.282 Y102.494 E20.35058
G1 X124.285 Y102.511 E20.35115
G1 X124.556 Y104.562 E20.41996
G1 X124.558 Y104.579 E20.42053
G1 X124.649 Y106.652 E20.48955
G1 X124.649 Y106.661 E20.48985
G1 X124.617 Y129.874 E21.26191
G1 X124.576 Y129.995 E21.26616
G1 X124.265 Y130.406 E21.28331
G1 X124.183 Y130.469 E21.28674
G1 X123.954 Y130.565 E21.295
G1 X123.877 Y130.581 E21.29762
G1 X77.65 Y130.595 E22.83514
G1 X77.599 Y130.588 E22.83685
G1 X77.351 Y130.522 E22.84538
G1 X77.257 Y130.467 E22.84901
G1 X76.89 Y130.08 E22.86674
G1 X76.839 Y129.984 E22.87036
G1 X76.785 Y129.73 E22.879
G1 X76.781 Y129.688 E22.8804
G1 X76.808 Y83.471 E24.41758
G1 X76.844 Y83.356 E24.42159
G1 X77.132 Y82.946 E24.43826
G1 F2700 E17.93826
G0 F1500 X77.713 Y83.551
G0 X101.722 Y83.652
G0 X101.737 Y83.153
;TYPE:WALL-OUTER
G1 F2700 E24.43826
G1 F750 X102.77 Y83.22 E24.47269
G1 X103.786 Y83.331 E24.50668
G1 X104.807 Y83.489 E24.54104
G1 X105.809 Y83.688 E24.57502
G1 X106.802 Y83.931 E24.60902
G1 X107.796 Y84.221 E24.64346
G1 X108.76 Y84.547 E24.67731
G1 X109.717 Y84.92 E24.71147
G1 X110.664 Y85.337 E24.74589
G1 X111.578 Y85.787 E24.77977
G1 X112.478 Y86.281 E24.81392
G1 X113.363 Y86.818 E24.84835
G1 X114.21 Y87.384 E24.88223
G1 X115.039 Y87.991 E24.9164
G1 X115.839 Y88.633 E24.95052
G1 X116.618 Y89.315 E24.98496
G1 X117.354 Y90.019 E25.01883
G1 X118.064 Y90.761 E25.05299
G1 X118.74 Y91.533 E25.08712
G1 X119.388 Y92.341 E25.12157
G1 X119.991 Y93.162 E25.15545
G1 X120.561 Y94.016 E25.1896
G1 X121.099 Y94.901 E25.22404
G1 X121.588 Y95.793 E25.25788
G1 X122.042 Y96.715 E25.29206
G1 X122.459 Y97.662 E25.32648
G1 X122.832 Y98.62 E25.36067
G1 X123.159 Y99.583 E25.39449
G1 X123.446 Y100.569 E25.42865
G1 X123.69 Y101.566 E25.46279
G1 X123.89 Y102.572 E25.4969
G1 X124.047 Y103.588 E25.5311
G1 X124.159 Y104.609 E25.56526
G1 X124.227 Y105.642 E25.59969
G1 X124.249 Y106.664 E25.63369
G1 X124.243 Y129.738 E26.40114
G1 X124.224 Y129.822 E26.404
G1 X124.188 Y129.909 E26.40713
G1 X124.137 Y129.99 E26.41032
G1 X124.067 Y130.065 E26.41373
G1 X123.994 Y130.119 E26.41675
G1 X123.91 Y130.161 E26.41987
G1 X123.827 Y130.187 E26.42276
G1 X123.722 Y130.199 E26.42628
G1 X77.659 Y130.195 E27.95834
G1 X77.569 Y130.177 E27.96139
G1 X77.482 Y130.145 E27.96448
G1 X77.393 Y130.089 E27.96797
G1 X77.316 Y130.017 E27.97148
G1 X77.26 Y129.942 E27.97459
G1 X77.217 Y129.859 E27.9777
G1 X77.192 Y129.776 E27.98059
G1 X77.18 Y129.671 E27.9841
G1 X77.185 Y83.606 E29.51623
G1 X77.202 Y83.518 E29.51921
G1 X77.235 Y83.43 E29.52234
G1 X77.281 Y83.352 E29.52535
G1 X77.342 Y83.282 E29.52844
G1 X77.417 Y83.22 E29.53167
G1 X77.498 Y83.176 E29.53474
G1 X77.58 Y83.148 E29.53762
G1 X77.679 Y83.132 E29.54096
G1 X100.71 Y83.129 E30.30697
G1 X101.737 Y83.153 E30.34114
G0 F1500 X101.936 Y83.165
G0 X101.903 Y83.663
G0 X102.996 Y101.925
G0 X103.06 Y102.421
G1 F750 X102.908 Y102.441 E30.34624
G1 X102.759 Y102.475 E30.35132
G1 X102.615 Y102.521 E30.35635
G1 X102.474 Y102.578 E30.36141
G1 X102.338 Y102.65 E30.36652
G1 X102.209 Y102.731 E30.37159
G1 X102.089 Y102.825 E30.37666
G1 X101.976 Y102.927 E30.38172
G1 X101.873 Y103.041 E30.38683
G1 X101.78 Y103.162 E30.39191
G1 X101.699 Y103.291 E30.39698
G1 X101.627 Y103.427 E30.40209
G1 X101.57 Y103.568 E30.40715
G1 X101.524 Y103.714 E30.41224
G1 X101.492 Y103.862 E30.41728
G1 X101.472 Y104.013 E30.42235
G1 X101.465 Y104.166 E30.42744
G1 X101.472 Y104.319 E30.43253
G1 X101.492 Y104.471 E30.43763
G1 X101.526 Y104.62 E30.44272
G1 X101.572 Y104.764 E30.44774
G1 X101.629 Y104.905 E30.4528
G1 X101.701 Y105.041 E30.45792
G1 X101.782 Y105.17 E30.46299
G1 X101.876 Y105.29 E30.46806
G1 X101.978 Y105.403 E30.47312
G1 X102.092 Y105.506 E30.47823
G1 X102.213 Y105.599 E30.48331
G1 X102.342 Y105.68 E30.48837
G1 X102.477 Y105.751 E30.49345
G1 X102.619 Y105.811 E30.49857
G1 X102.765 Y105.854 E30.50363
G1 X102.913 Y105.888 E30.50869
G1 X103.065 Y105.907 E30.51378
G1 X103.217 Y105.914 E30.51884
G1 X103.369 Y105.907 E30.5239
G1 X103.525 Y105.888 E30.52913
G1 X103.812 Y105.81 E30.53902
G1 X103.957 Y105.749 E30.54425
G1 X104.092 Y105.678 E30.54933
G1 X104.221 Y105.597 E30.55439
G1 X104.341 Y105.503 E30.55946
G1 X104.454 Y105.401 E30.56453
G1 X104.557 Y105.287 E30.56964
G1 X104.65 Y105.166 E30.57471
G1 X104.731 Y105.037 E30.57978
G1 X104.802 Y104.902 E30.58485
G1 X104.862 Y104.76 E30.58998
G1 X104.905 Y104.614 E30.59504
G1 X104.939 Y104.466 E30.60009
G1 X104.958 Y104.314 E30.60519
G1 X104.965 Y104.162 E30.61025
G1 X104.958 Y104.01 E30.61531
G1 X104.939 Y103.854 E30.62053
G1 X104.861 Y103.567 E30.63043
G1 X104.8 Y103.422 E30.63566
G1 X104.729 Y103.287 E30.64073
G1 X104.648 Y103.158 E30.6458
G1 X104.554 Y103.038 E30.65087
G1 X104.452 Y102.925 E30.65593
G1 X104.338 Y102.822 E30.66104
G1 X104.217 Y102.729 E30.66612
G1 X104.088 Y102.648 E30.67118
G1 X103.952 Y102.576 E30.6763
G1 X103.811 Y102.519 E30.68136
G1 X103.665 Y102.473 E30.68645
G1 X103.517 Y102.441 E30.69149
G1 X103.366 Y102.421 E30.69655
G1 X103.213 Y102.414 E30.70165
G1 X103.06 Y102.421 E30.70674
G0 F1500 X102.908 Y102.441
G0 X102.862 Y102.451
G0 X103.025 Y102.022
;TYPE:WALL-INNER
G1 F750 X102.837 Y102.047 E30.71305
G1 X102.653 Y102.089 E30.71933
G1 X102.479 Y102.145 E30.72541
G1 X102.305 Y102.215 E30.73164
G1 X102.138 Y102.303 E30.73792
G1 X101.979 Y102.403 E30.74417
G1 X101.831 Y102.519 E30.75042
G1 X101.693 Y102.644 E30.75662
G1 X101.566 Y102.785 E30.76293
G1 X101.451 Y102.933 E30.76916
G1 X101.352 Y103.091 E30.77536
G1 X101.264 Y103.258 E30.78164
G1 X101.193 Y103.433 E30.78792
G1 X101.137 Y103.611 E30.79413
G1 X101.098 Y103.793 E30.80032
G1 X101.073 Y103.978 E30.80653
G1 X101.065 Y104.166 E30.81279
G1 X101.073 Y104.354 E30.81905
G1 X101.098 Y104.542 E30.82536
G1 X101.14 Y104.726 E30.83163
G1 X101.196 Y104.9 E30.83771
G1 X101.266 Y105.074 E30.84395
G1 X101.354 Y105.241 E30.85023
G1 X101.454 Y105.4 E30.85648
G1 X101.57 Y105.548 E30.86273
G1 X101.695 Y105.686 E30.86892
G1 X101.836 Y105.813 E30.87524
G1 X101.984 Y105.928 E30.88147
G1 X102.142 Y106.027 E30.88767
G1 X102.306 Y106.113 E30.89383
G1 X102.484 Y106.188 E30.90025
G1 X102.664 Y106.241 E30.90649
G1 X102.843 Y106.282 E30.9126
G1 X103.031 Y106.306 E30.91891
G1 X103.217 Y106.314 E30.9251
G1 X103.402 Y106.306 E30.93126
G1 X103.602 Y106.282 E30.93796
G1 X103.943 Y106.189 E30.94971
G1 X104.128 Y106.111 E30.95639
G1 X104.292 Y106.025 E30.96255
G1 X104.451 Y105.925 E30.9688
G1 X104.599 Y105.809 E30.97505
G1 X104.737 Y105.684 E30.98124
G1 X104.864 Y105.543 E30.98756
G1 X104.979 Y105.395 E30.99379
G1 X105.078 Y105.237 E30.99999
G1 X105.164 Y105.073 E31.00615
G1 X105.239 Y104.895 E31.01257
G1 X105.292 Y104.715 E31.01882
G1 X105.333 Y104.536 E31.02492
G1 X105.357 Y104.348 E31.03123
G1 X105.365 Y104.162 E31.03742
G1 X105.357 Y103.977 E31.04358
G1 X105.333 Y103.777 E31.05028
G1 X105.24 Y103.436 E31.06203
G1 X105.162 Y103.251 E31.06871
G1 X105.076 Y103.087 E31.07487
G1 X104.976 Y102.928 E31.08112
G1 X104.86 Y102.78 E31.08737
G1 X104.735 Y102.642 E31.09357
G1 X104.594 Y102.515 E31.09988
G1 X104.446 Y102.4 E31.10611
G1 X104.288 Y102.301 E31.11231
G1 X104.121 Y102.213 E31.11859
G1 X103.946 Y102.142 E31.12487
G1 X103.768 Y102.086 E31.13108
G1 X103.586 Y102.047 E31.13727
G1 X103.401 Y102.022 E31.14348
G1 X103.213 Y102.014 E31.14974
G1 X103.025 Y102.022 E31.156
G0 F1500 X103.017 Y101.923
G0 X101.722 Y83.652
G0 X101.726 Y83.553
G1 F750 X102.727 Y83.618 E31.18936
G1 X103.743 Y83.729 E31.22335
G1 X104.737 Y83.883 E31.25681
G1 X105.714 Y84.077 E31.28994
G1 X106.707 Y84.32 E31.32394
G1 X107.675 Y84.602 E31.35747
G1 X108.62 Y84.922 E31.39066
G1 X109.572 Y85.293 E31.42464
G1 X110.487 Y85.696 E31.45789
G1 X111.401 Y86.146 E31.49178
G1 X112.27 Y86.623 E31.52475
G1 X113.149 Y87.156 E31.55894
G1 X113.988 Y87.717 E31.59251
G1 X114.803 Y88.314 E31.62611
G1 X115.589 Y88.945 E31.65963
G1 X116.355 Y89.616 E31.6935
G1 X117.065 Y90.296 E31.7262
G1 X117.763 Y91.025 E31.75977
G1 X118.439 Y91.797 E31.7939
G1 X119.066 Y92.578 E31.82721
G1 X119.658 Y93.384 E31.86047
G1 X120.219 Y94.224 E31.89407
G1 X120.757 Y95.109 E31.92852
G1 X121.229 Y95.97 E31.96118
G1 X121.683 Y96.892 E31.99536
G1 X122.086 Y97.807 E32.02861
G1 X122.453 Y98.749 E32.06224
G1 X122.78 Y99.712 E32.09606
G1 X123.057 Y100.664 E32.12904
G1 X123.301 Y101.661 E32.16318
G1 X123.495 Y102.633 E32.19614
G1 X123.649 Y103.632 E32.22976
G1 X123.761 Y104.653 E32.26393
G1 X123.827 Y105.651 E32.29719
G1 X123.849 Y106.664 E32.33089
G1 X123.843 Y129.696 E33.09694
G1 X123.82 Y129.744 E33.09871
G1 X123.783 Y129.777 E33.10036
G1 X123.739 Y129.795 E33.10194
G1 X77.804 Y129.795 E34.62974
G1 X77.697 Y129.795 E34.6333
G1 X77.663 Y129.786 E34.63447
G1 X77.616 Y129.75 E34.63644
G1 X77.589 Y129.708 E34.6381
G1 X77.58 Y129.65 E34.64006
G1 X77.58 Y129.543 E34.64361
G1 X77.589 Y83.627 E36.17079
G1 X77.607 Y83.588 E36.17222
