;FLAVOR:Marlin
;TIME:23529
;Filament used: 8.00611m
;Layer height: 0.12
;Generated with Cura_SteamEngine 3.1.0
M82 ; absolute extrusion mode
G28 ;Home
G29 ; AutoLevel
M140 S60 ; set the bed temperature and continue on
M104 S200; set the extruder temperature and continue on
M109 S200; set the extruder temperature and continue on
G1 Z15.0 F6000 ;Move the platform down 15mm
G92 E0
G1 F200 E3
G92 E0
;LAYER_COUNT:417
;LAYER:0
M107
G0 F1500 X83.976 Y83.972 Z0.2
;TYPE:SKIRT
G1 F900 X84.36 Y83.597 E0.01785
G1 X84.795 Y83.284 E0.03568
G1 X85.407 Y82.985 E0.05833
G1 X85.548 Y82.932 E0.06334
G1 X86.063 Y82.781 E0.08119
G1 X86.811 Y82.702 E0.10621
G1 X110.193 Y82.674 E0.8839
G1 X110.392 Y82.679 E0.89052
G1 X112.605 Y82.799 E0.96423
G1 X113.007 Y82.844 E0.97768
G1 X116.04 Y83.354 E1.07998
G1 X116.422 Y83.44 E1.093
G1 X118.445 Y84.012 E1.16293
G1 X118.747 Y84.112 E1.17351
G1 X120.683 Y84.849 E1.24241
G1 X120.969 Y84.972 E1.25276
G1 X122.791 Y85.853 E1.32007
G1 X123.139 Y86.045 E1.33329
G1 X125.849 Y87.747 E1.43973
G1 X126.23 Y88.023 E1.45538
G1 X128.587 Y89.974 E1.55714
G1 X128.873 Y90.239 E1.57011
G1 X130.303 Y91.711 E1.63837
G1 X130.512 Y91.946 E1.64883
G1 X131.82 Y93.552 E1.71772
G1 X132.008 Y93.804 E1.72818
G1 X133.185 Y95.539 E1.79791
G1 X133.388 Y95.876 E1.81099
G1 X134.832 Y98.604 E1.91365
G1 X135.024 Y99.032 E1.92926
G1 X136.104 Y101.932 E2.03218
G1 X136.219 Y102.303 E2.0451
G1 X136.725 Y104.297 E2.11352
G1 X136.802 Y104.685 E2.12668
G1 X137.231 Y107.764 E2.23008
G1 X137.261 Y108.085 E2.2408
G1 X137.317 Y109.231 E2.27896
G1 X137.321 Y109.407 E2.28482
G1 X137.319 Y133.075 E3.07202
G1 X137.279 Y133.61 E3.08986
G1 X137.189 Y134.034 E3.10428
G1 X137.126 Y134.262 E3.11215
G1 X136.945 Y134.767 E3.12999
G1 X136.691 Y135.239 E3.14782
G1 X136.37 Y135.668 E3.16564
G1 X136.18 Y135.87 E3.17486
G1 X135.816 Y136.228 E3.19184
G1 X135.407 Y136.574 E3.20966
G1 X134.951 Y136.856 E3.22749
G1 X134.458 Y137.067 E3.24533
G1 X133.923 Y137.205 E3.26371
G1 X133.569 Y137.268 E3.27566
G1 X132.935 Y137.324 E3.29683
G1 X86.766 Y137.285 E4.83242
G1 X86.231 Y137.245 E4.85027
G1 X85.708 Y137.125 E4.86811
G1 X85.209 Y136.929 E4.88594
G1 X84.744 Y136.662 E4.90378
G1 X84.27 Y136.277 E4.92409
G1 X83.823 Y135.846 E4.94474
G1 X83.466 Y135.446 E4.96257
G1 X83.172 Y134.997 E4.98042
G1 X82.948 Y134.51 E4.99825
G1 X82.799 Y133.995 E5.01608
G1 X82.727 Y133.451 E5.03433
G1 X82.671 Y132.431 E5.06831
G1 X82.666 Y132.23 E5.075
G1 X82.718 Y86.754 E6.58754
G1 X82.759 Y86.219 E6.60538
G1 X82.878 Y85.696 E6.62322
G1 X83.074 Y85.197 E6.64105
G1 X83.342 Y84.733 E6.65888
G1 X83.62 Y84.375 E6.67395
G1 X83.976 Y83.972 E6.69184
G0 F1500 X84.276 Y84.236
G1 F900 X84.639 Y83.885 E6.70863
G1 X85.054 Y83.596 E6.72545
G1 X85.548 Y83.36 E6.74366
G1 X85.689 Y83.307 E6.74867
G1 X86.175 Y83.167 E6.76549
G1 X86.811 Y83.102 E6.78676
G1 X110.193 Y83.074 E7.56445
G1 X110.37 Y83.079 E7.57033
G1 X112.583 Y83.199 E7.64405
G1 X112.941 Y83.238 E7.65603
G1 X115.974 Y83.748 E7.75832
G1 X116.314 Y83.825 E7.76991
G1 X118.337 Y84.397 E7.83984
G1 X118.604 Y84.485 E7.84919
G1 X120.54 Y85.222 E7.91809
G1 X120.795 Y85.332 E7.92732
G1 X122.617 Y86.213 E7.99464
G1 X122.926 Y86.384 E8.00638
G1 X125.636 Y88.086 E8.11282
G1 X125.974 Y88.331 E8.1267
G1 X128.331 Y90.282 E8.22847
G1 X128.586 Y90.517 E8.24
G1 X130.016 Y91.989 E8.30826
G1 X130.202 Y92.198 E8.31757
G1 X131.51 Y93.804 E8.38646
G1 X131.677 Y94.029 E8.39578
G1 X132.854 Y95.764 E8.46551
G1 X133.034 Y96.063 E8.47712
G1 X134.478 Y98.791 E8.57978
G1 X134.649 Y99.171 E8.59364
G1 X135.729 Y102.071 E8.69656
G1 X135.832 Y102.401 E8.70806
G1 X136.338 Y104.395 E8.77648
G1 X136.405 Y104.74 E8.78817
G1 X136.834 Y107.819 E8.89157
G1 X136.861 Y108.105 E8.90113
G1 X136.917 Y109.251 E8.93929
G1 X136.921 Y109.407 E8.94448
G1 X136.919 Y133.075 E9.73168
G1 X136.879 Y133.579 E9.74849
G1 X136.803 Y133.927 E9.76034
G1 X136.74 Y134.155 E9.76821
G1 X136.568 Y134.63 E9.78501
G1 X136.322 Y135.072 E9.80184
G1 X135.9 Y135.584 E9.8239
G1 X135.536 Y135.942 E9.84088
G1 X135.149 Y136.267 E9.85769
G1 X134.715 Y136.527 E9.87452
G1 X134.246 Y136.716 E9.89134
G1 X133.853 Y136.811 E9.90479
G1 X133.499 Y136.874 E9.91675
G1 X132.935 Y136.924 E9.93558
G1 X86.766 Y136.885 E11.47117
G1 X86.262 Y136.845 E11.48798
G1 X85.771 Y136.725 E11.50479
G1 X85.305 Y136.53 E11.52159
G1 X84.875 Y136.264 E11.53841
G1 X84.548 Y135.989 E11.55262
G1 X84.101 Y135.558 E11.57327
G1 X83.766 Y135.179 E11.5901
G1 X83.494 Y134.752 E11.60694
G1 X83.294 Y134.288 E11.62374
G1 X83.169 Y133.799 E11.64053
G1 X83.127 Y133.429 E11.65291
G1 X83.071 Y132.409 E11.68689
G1 X83.066 Y132.23 E11.69285
G1 X83.118 Y86.754 E13.20539
G1 X83.159 Y86.25 E13.2222
G1 X83.278 Y85.759 E13.23901
G1 X83.473 Y85.293 E13.25581
G1 X83.739 Y84.863 E13.27263
G1 X83.92 Y84.639 E13.28221
G1 X84.276 Y84.236 E13.30009
G1 F2700 E6.80009
G0 F1500 X86.206 Y85.85
G0 X86.979 Y86.889
G0 X112.275 Y104.959
;TYPE:WALL-INNER
G1 F2700 E13.30009
G1 F900 X112.05 Y104.989 E13.30764
G1 X111.837 Y105.038 E13.31491
G1 X111.628 Y105.102 E13.32218
G1 X111.418 Y105.191 E13.32977
G1 X111.224 Y105.292 E13.33704
G1 X111.034 Y105.411 E13.3445
G1 X110.858 Y105.549 E13.35194
G1 X110.694 Y105.697 E13.35928
G1 X110.544 Y105.864 E13.36675
G1 X110.408 Y106.04 E13.37415
G1 X110.29 Y106.228 E13.38153
G1 X110.189 Y106.42 E13.38874
G1 X110.099 Y106.632 E13.3964
G1 X110.033 Y106.852 E13.40404
G1 X109.989 Y107.06 E13.41112
G1 X109.959 Y107.279 E13.41847
G1 X109.95 Y107.502 E13.42589
G1 X109.959 Y107.725 E13.43331
G1 X109.989 Y107.95 E13.44086
G1 X110.038 Y108.163 E13.44813
G1 X110.102 Y108.372 E13.4554
G1 X110.191 Y108.582 E13.46299
G1 X110.292 Y108.776 E13.47026
G1 X110.411 Y108.966 E13.47772
G1 X110.549 Y109.142 E13.48516
G1 X110.697 Y109.306 E13.49251
G1 X110.864 Y109.456 E13.49997
G1 X111.04 Y109.592 E13.50737
G1 X111.228 Y109.71 E13.51475
G1 X111.42 Y109.811 E13.52197
G1 X111.632 Y109.901 E13.52963
G1 X111.852 Y109.967 E13.53727
G1 X112.06 Y110.011 E13.54434
G1 X112.279 Y110.041 E13.55169
G1 X112.502 Y110.05 E13.55911
G1 X112.725 Y110.041 E13.56654
G1 X112.95 Y110.011 E13.57409
G1 X113.163 Y109.962 E13.58136
G1 X113.372 Y109.898 E13.58863
G1 X113.582 Y109.809 E13.59621
G1 X113.776 Y109.708 E13.60349
G1 X113.966 Y109.589 E13.61094
G1 X114.142 Y109.451 E13.61838
G1 X114.306 Y109.303 E13.62573
G1 X114.456 Y109.136 E13.6332
G1 X114.592 Y108.96 E13.64059
G1 X114.71 Y108.772 E13.64798
G1 X114.811 Y108.58 E13.65519
G1 X114.901 Y108.368 E13.66285
G1 X114.967 Y108.148 E13.67049
G1 X115.011 Y107.94 E13.67756
G1 X115.041 Y107.721 E13.68491
G1 X115.05 Y107.498 E13.69234
G1 X115.041 Y107.275 E13.69976
G1 X115.011 Y107.05 E13.70731
G1 X114.962 Y106.837 E13.71458
G1 X114.898 Y106.628 E13.72185
G1 X114.809 Y106.418 E13.72944
G1 X114.708 Y106.224 E13.73671
G1 X114.589 Y106.034 E13.74417
G1 X114.451 Y105.858 E13.75161
G1 X114.303 Y105.694 E13.75895
G1 X114.136 Y105.544 E13.76642
G1 X113.96 Y105.408 E13.77382
G1 X113.772 Y105.29 E13.7812
G1 X113.58 Y105.189 E13.78841
G1 X113.368 Y105.099 E13.79607
G1 X113.148 Y105.033 E13.80371
G1 X112.94 Y104.989 E13.81079
G1 X112.721 Y104.959 E13.81814
G1 X112.498 Y104.95 E13.82556
G1 X112.275 Y104.959 E13.83298
G0 F1500 X111.083 Y105.852
G0 X87.466 Y132.728
G1 F900 X87.266 Y132.728 E13.83964
G1 X87.266 Y132.528 E13.84394
G1 X87.277 Y87.27 E15.34923
G1 X109.977 Y87.265 E16.10424
G1 X110.999 Y87.289 E16.13824
G1 X111.969 Y87.352 E16.17057
G1 X112.985 Y87.463 E16.20456
G1 X113.952 Y87.613 E16.23711
G1 X114.904 Y87.802 E16.26939
G1 X115.897 Y88.045 E16.30339
G1 X116.839 Y88.319 E16.33602
G1 X117.764 Y88.633 E16.36851
G1 X118.712 Y89.002 E16.40235
G1 X119.595 Y89.391 E16.43444
G1 X120.509 Y89.841 E16.46832
G1 X121.363 Y90.31 E16.50073
G1 X122.212 Y90.825 E16.53375
G1 X123.036 Y91.376 E16.56672
G1 X123.85 Y91.973 E16.6003
G1 X124.61 Y92.582 E16.63269
G1 X125.376 Y93.253 E16.66656
G1 X126.067 Y93.915 E16.69839
G1 X126.747 Y94.625 E16.73109
G1 X127.423 Y95.397 E16.76522
G1 X128.027 Y96.151 E16.79735
G1 X128.629 Y96.972 E16.83121
G1 X129.162 Y97.768 E16.86307
G1 X129.681 Y98.623 E16.89634
G1 X130.171 Y99.515 E16.93019
G1 X130.609 Y100.405 E16.96318
G1 X130.998 Y101.288 E16.99527
G1 X131.371 Y102.246 E17.02946
G1 X131.675 Y103.143 E17.06097
G1 X131.953 Y104.095 E17.09395
G1 X132.197 Y105.092 E17.12809
G1 X132.386 Y106.039 E17.16021
G1 X132.536 Y107.012 E17.19295
G1 X132.648 Y108.033 E17.22712
G1 X132.711 Y108.996 E17.25921
G1 X132.734 Y110 E17.29262
G1 X132.723 Y132.73 E18.04862
G1 X87.466 Y132.728 E19.55387
G0 F1500 X87.085 Y133.128
G1 F900 X86.975 Y133.128 E19.55753
G1 X86.934 Y133.115 E19.55896
G1 X86.9 Y133.086 E19.56045
G1 X86.877 Y133.046 E19.56198
G1 X86.866 Y132.985 E19.56404
G1 X86.866 Y132.875 E19.5677
G1 X86.877 Y86.953 E21.09508
G1 X86.895 Y86.919 E21.09635
G1 X86.929 Y86.889 E21.09786
G1 X86.976 Y86.87 E21.09955
G1 X109.986 Y86.865 E21.86486
G1 X111.011 Y86.889 E21.89897
G1 X112.012 Y86.954 E21.93233
G1 X113.028 Y87.065 E21.96632
G1 X114.022 Y87.219 E21.99978
G1 X114.999 Y87.413 E22.03291
G1 X115.992 Y87.656 E22.06691
G1 X116.96 Y87.938 E22.10044
G1 X117.904 Y88.258 E22.1336
G1 X118.857 Y88.629 E22.16761
G1 X119.772 Y89.032 E22.20086
G1 X120.686 Y89.482 E22.23475
G1 X121.555 Y89.959 E22.26772
G1 X122.434 Y90.492 E22.30191
G1 X123.273 Y91.053 E22.33548
G1 X124.087 Y91.65 E22.36905
G1 X124.874 Y92.281 E22.4026
G1 X125.64 Y92.952 E22.43647
G1 X126.35 Y93.632 E22.46917
G1 X127.048 Y94.361 E22.50274
G1 X127.724 Y95.133 E22.53687
G1 X128.35 Y95.914 E22.57016
G1 X128.952 Y96.735 E22.60402
G1 X129.504 Y97.56 E22.63704
G1 X130.032 Y98.43 E22.67089
G1 X130.522 Y99.322 E22.70473
G1 X130.968 Y100.228 E22.73832
G1 X131.371 Y101.143 E22.77158
G1 X131.744 Y102.101 E22.80577
G1 X132.059 Y103.031 E22.83843
G1 X132.342 Y104 E22.872
G1 X132.586 Y104.997 E22.90614
G1 X132.78 Y105.969 E22.93911
G1 X132.934 Y106.968 E22.97273
G1 X133.046 Y107.989 E23.00689
G1 X133.111 Y108.987 E23.04015
G1 X133.134 Y110 E23.07385
G1 X133.123 Y133.047 E23.8404
G1 X133.106 Y133.079 E23.84161
G1 X133.071 Y133.111 E23.84318
G1 X133.024 Y133.13 E23.84487
G1 X87.085 Y133.128 E25.37281
G0 F1500 X87.085 Y133.029
G0 X111.091 Y105.825
G0 X111.625 Y105.516
G0 X112.302 Y105.259
G0 X112.31 Y105.358
G1 F900 X112.122 Y105.383 E25.37912
G1 X111.941 Y105.425 E25.3853
G1 X111.764 Y105.479 E25.39145
G1 X111.588 Y105.553 E25.3978
G1 X111.423 Y105.639 E25.40399
G1 X111.264 Y105.739 E25.41024
G1 X111.116 Y105.855 E25.41649
G1 X110.978 Y105.98 E25.42268
G1 X110.851 Y106.121 E25.429
G1 X110.736 Y106.269 E25.43523
G1 X110.637 Y106.427 E25.44143
G1 X110.551 Y106.591 E25.44759
G1 X110.476 Y106.768 E25.45398
G1 X110.421 Y106.951 E25.46034
G1 X110.383 Y107.129 E25.46639
G1 X110.358 Y107.314 E25.4726
G1 X110.35 Y107.502 E25.47886
G1 X110.358 Y107.69 E25.48512
G1 X110.383 Y107.878 E25.49143
G1 X110.425 Y108.059 E25.49761
G1 X110.479 Y108.236 E25.50376
G1 X110.553 Y108.412 E25.51011
G1 X110.639 Y108.577 E25.5163
G1 X110.739 Y108.736 E25.52255
G1 X110.855 Y108.884 E25.5288
G1 X110.98 Y109.022 E25.535
G1 X111.121 Y109.149 E25.54131
G1 X111.269 Y109.264 E25.54754
G1 X111.427 Y109.363 E25.55374
G1 X111.591 Y109.449 E25.5599
G1 X111.768 Y109.524 E25.56629
G1 X111.951 Y109.579 E25.57265
G1 X112.129 Y109.617 E25.5787
G1 X112.314 Y109.642 E25.58491
G1 X112.502 Y109.65 E25.59117
G1 X112.69 Y109.642 E25.59743
G1 X112.878 Y109.617 E25.60374
G1 X113.059 Y109.575 E25.60992
G1 X113.236 Y109.521 E25.61607
G1 X113.412 Y109.447 E25.62242
G1 X113.577 Y109.361 E25.62861
G1 X113.736 Y109.261 E25.63486
G1 X113.884 Y109.145 E25.64111
G1 X114.022 Y109.02 E25.64731
G1 X114.149 Y108.879 E25.65362
G1 X114.264 Y108.731 E25.65985
G1 X114.363 Y108.573 E25.66605
G1 X114.449 Y108.409 E25.67221
G1 X114.524 Y108.232 E25.67861
G1 X114.579 Y108.049 E25.68496
G1 X114.617 Y107.871 E25.69102
G1 X114.642 Y107.686 E25.69722
G1 X114.65 Y107.498 E25.70348
G1 X114.642 Y107.31 E25.70974
G1 X114.617 Y107.122 E25.71605
G1 X114.575 Y106.941 E25.72223
G1 X114.521 Y106.764 E25.72838
G1 X114.447 Y106.588 E25.73473
G1 X114.361 Y106.423 E25.74092
G1 X114.261 Y106.264 E25.74717
G1 X114.145 Y106.116 E25.75343
G1 X114.02 Y105.978 E25.75962
G1 X113.879 Y105.851 E25.76593
G1 X113.731 Y105.736 E25.77216
G1 X113.573 Y105.637 E25.77836
G1 X113.409 Y105.551 E25.78452
G1 X113.232 Y105.476 E25.79092
G1 X113.049 Y105.421 E25.79727
G1 X112.871 Y105.383 E25.80333
G1 X112.686 Y105.358 E25.80954
G1 X112.498 Y105.35 E25.81579
G1 X112.31 Y105.358 E25.82205
G0 F1500 X112.345 Y105.757
;TYPE:WALL-OUTER
G1 F900 X112.193 Y105.777 E25.82715
G1 X112.045 Y105.811 E25.8322
G1 X111.9 Y105.856 E25.83725
G1 X111.758 Y105.915 E25.84237
G1 X111.623 Y105.986 E25.84744
G1 X111.494 Y106.067 E25.85251
G1 X111.374 Y106.161 E25.85758
G1 X111.261 Y106.263 E25.86264
G1 X111.158 Y106.377 E25.86775
G1 X111.065 Y106.498 E25.87283
G1 X110.984 Y106.627 E25.87789
G1 X110.913 Y106.762 E25.88296
G1 X110.853 Y106.904 E25.88809
G1 X110.809 Y107.051 E25.8932
G1 X110.777 Y107.198 E25.8982
G1 X110.757 Y107.349 E25.90327
G1 X110.75 Y107.502 E25.90836
G1 X110.757 Y107.655 E25.91345
G1 X110.777 Y107.807 E25.91855
G1 X110.811 Y107.955 E25.9236
G1 X110.856 Y108.1 E25.92865
G1 X110.915 Y108.242 E25.93377
G1 X110.986 Y108.377 E25.93884
G1 X111.067 Y108.506 E25.94391
G1 X111.161 Y108.626 E25.94898
G1 X111.263 Y108.739 E25.95404
G1 X111.377 Y108.842 E25.95915
G1 X111.498 Y108.935 E25.96423
G1 X111.627 Y109.016 E25.96929
G1 X111.762 Y109.087 E25.97437
G1 X111.904 Y109.147 E25.97949
G1 X112.051 Y109.191 E25.9846
G1 X112.198 Y109.223 E25.9896
G1 X112.349 Y109.243 E25.99467
G1 X112.502 Y109.25 E25.99976
G1 X112.655 Y109.243 E26.00485
G1 X112.807 Y109.223 E26.00995
G1 X112.955 Y109.189 E26.015
G1 X113.1 Y109.144 E26.02005
G1 X113.242 Y109.085 E26.02517
G1 X113.377 Y109.014 E26.03024
G1 X113.506 Y108.933 E26.03531
G1 X113.626 Y108.839 E26.04038
G1 X113.739 Y108.737 E26.04544
G1 X113.842 Y108.623 E26.05055
G1 X113.935 Y108.502 E26.05563
G1 X114.016 Y108.373 E26.06069
G1 X114.087 Y108.238 E26.06577
G1 X114.147 Y108.096 E26.07089
G1 X114.191 Y107.949 E26.076
G1 X114.223 Y107.802 E26.081
G1 X114.243 Y107.651 E26.08607
G1 X114.25 Y107.498 E26.09116
G1 X114.243 Y107.345 E26.09626
G1 X114.223 Y107.193 E26.10135
G1 X114.189 Y107.045 E26.10641
G1 X114.144 Y106.9 E26.11145
G1 X114.085 Y106.758 E26.11657
G1 X114.014 Y106.623 E26.12164
G1 X113.933 Y106.494 E26.12671
G1 X113.839 Y106.374 E26.13178
G1 X113.737 Y106.261 E26.13684
G1 X113.623 Y106.158 E26.14195
G1 X113.502 Y106.065 E26.14703
G1 X113.373 Y105.984 E26.15209
G1 X113.238 Y105.913 E26.15717
G1 X113.096 Y105.853 E26.16229
G1 X112.949 Y105.809 E26.1674
G1 X112.802 Y105.777 E26.1724
G1 X112.651 Y105.757 E26.17747
G1 X112.498 Y105.75 E26.18256
G1 X112.345 Y105.757 E26.18766
G0 F1500 X112.193 Y105.777
G0 X112.147 Y105.787
G0 X112.035 Y105.301
G0 X111.007 Y86.988
G0 X111.022 Y86.489
G1 F900 X112.055 Y86.556 E26.22209
G1 X113.071 Y86.667 E26.25608
G1 X114.092 Y86.825 E26.29044
G1 X115.094 Y87.024 E26.32442
G1 X116.087 Y87.267 E26.35842
G1 X117.081 Y87.557 E26.39286
G1 X118.044 Y87.883 E26.42668
G1 X119.002 Y88.256 E26.46087
G1 X119.949 Y88.673 E26.49528
G1 X120.863 Y89.123 E26.52917
G1 X121.763 Y89.617 E26.56332
G1 X122.648 Y90.154 E26.59775
G1 X123.495 Y90.72 E26.63163
G1 X124.323 Y91.327 E26.66578
G1 X125.124 Y91.969 E26.69992
G1 X125.903 Y92.651 E26.73435
G1 X126.639 Y93.355 E26.76823
G1 X127.349 Y94.097 E26.80239
G1 X128.025 Y94.869 E26.83652
G1 X128.673 Y95.677 E26.87096
G1 X129.275 Y96.498 E26.90483
G1 X129.846 Y97.352 E26.93899
G1 X130.383 Y98.237 E26.97342
G1 X130.873 Y99.129 E27.00727
G1 X131.327 Y100.051 E27.04146
G1 X131.744 Y100.998 E27.07587
G1 X132.117 Y101.956 E27.11006
G1 X132.443 Y102.919 E27.14388
G1 X132.731 Y103.905 E27.17804
G1 X132.975 Y104.902 E27.21218
G1 X133.175 Y105.908 E27.2463
G1 X133.332 Y106.924 E27.28049
G1 X133.444 Y107.945 E27.31465
G1 X133.511 Y108.978 E27.34908
G1 X133.534 Y110 E27.38308
G1 X133.528 Y133.071 E28.15043
G1 X133.504 Y133.172 E28.15388
G1 X133.468 Y133.258 E28.15698
G1 X133.421 Y133.329 E28.15981
G1 X133.354 Y133.399 E28.16304
G1 X133.282 Y133.453 E28.16603
G1 X133.188 Y133.499 E28.16951
G1 X133.091 Y133.526 E28.17286
