;FLAVOR:Marlin
;TIME:1398
;Filament used: 0.975437m
;Layer height: 0.2
;Generated with Cura_SteamEngine 3.1.0
M82 ; absolute extrusion mode
G28 ;Home
G29 ; AutoLevel
M190 S50 ; set the bed temperature and continue on
M104 S200; set the extruder temperature and continue on
M109 S200; set the extruder temperature and continue on
G1 Z15.0 F6000 ;Move the platform down 15mm
G92 E0
G1 E5 ; extrude 5 mm of filament
G4 S5 ; wait 5 seconds for extrude
G1 F12000 E5 ; move 15 mm up, fast, while extruding 5mm
G92 E0 ; reset extruder
M117 Printing...;Put printing message on LCD screen
;LAYER_COUNT:111
;LAYER:0
M107
G0 F1500 X98.865 Y107.007 Z0.2
;TYPE:SKIRT
G1 F1200 X99.315 Y106.665 E0.0188
G1 X99.808 Y106.389 E0.03759
G1 X100.336 Y106.185 E0.05642
G1 X100.886 Y106.058 E0.07519
G1 X101.509 Y106.009 E0.09598
G1 X118.491 Y106.01 E0.6608
G1 X119.055 Y106.05 E0.67961
G1 X119.608 Y106.169 E0.69842
G1 X120.138 Y106.365 E0.71721
G1 X120.636 Y106.633 E0.73602
G1 X121.09 Y106.97 E0.75483
G1 X121.493 Y107.366 E0.77362
G1 X121.836 Y107.816 E0.79244
G1 X122.111 Y108.309 E0.81122
G1 X122.315 Y108.837 E0.83004
G1 X122.442 Y109.388 E0.84885
G1 X122.491 Y110.01 E0.8696
G1 X122.491 Y123.991 E1.33461
G1 X122.451 Y124.555 E1.35342
G1 X122.332 Y125.108 E1.37223
G1 X122.136 Y125.638 E1.39103
G1 X121.868 Y126.135 E1.40981
G1 X121.532 Y126.59 E1.42862
G1 X121.135 Y126.993 E1.44743
G1 X120.685 Y127.335 E1.46623
G1 X120.192 Y127.611 E1.48503
G1 X119.664 Y127.815 E1.50385
G1 X119.114 Y127.942 E1.52263
G1 X118.491 Y127.991 E1.54341
G1 X101.509 Y127.991 E2.10824
G1 X100.945 Y127.951 E2.12704
G1 X100.392 Y127.832 E2.14586
G1 X99.862 Y127.636 E2.16465
G1 X99.365 Y127.368 E2.18343
G1 X98.91 Y127.032 E2.20224
G1 X98.507 Y126.635 E2.22106
G1 X98.165 Y126.185 E2.23986
G1 X97.889 Y125.692 E2.25865
G1 X97.685 Y125.164 E2.27748
G1 X97.558 Y124.614 E2.29625
G1 X97.509 Y123.991 E2.31704
G1 X97.509 Y110.009 E2.78208
G1 X97.549 Y109.445 E2.80088
G1 X97.668 Y108.892 E2.8197
G1 X97.864 Y108.362 E2.83849
G1 X98.132 Y107.865 E2.85727
G1 X98.468 Y107.41 E2.87609
G1 X98.865 Y107.007 E2.8949
G0 F1500 X99.256 Y107.201
G1 F1200 X99.698 Y106.898 E2.91272
G1 X100.181 Y106.663 E2.93059
G1 X100.692 Y106.503 E2.9484
G1 X101.222 Y106.42 E2.96624
G1 X101.509 Y106.409 E2.97579
G1 X118.491 Y106.41 E3.54062
G1 X119.026 Y106.45 E3.55846
G1 X119.549 Y106.569 E3.5763
G1 X120.048 Y106.764 E3.59412
G1 X120.513 Y107.032 E3.61197
G1 X120.933 Y107.365 E3.6298
G1 X121.299 Y107.757 E3.64764
G1 X121.603 Y108.199 E3.66548
G1 X121.837 Y108.682 E3.68333
G1 X121.997 Y109.194 E3.70117
G1 X122.08 Y109.723 E3.71898
G1 X122.091 Y110.01 E3.72853
G1 X122.091 Y123.991 E4.19354
G1 X122.051 Y124.526 E4.21139
G1 X121.932 Y125.049 E4.22923
G1 X121.737 Y125.548 E4.24705
G1 X121.469 Y126.013 E4.2649
G1 X121.136 Y126.433 E4.28272
G1 X120.744 Y126.799 E4.30056
G1 X120.302 Y127.102 E4.31838
G1 X119.819 Y127.337 E4.33625
G1 X119.308 Y127.497 E4.35406
G1 X118.778 Y127.58 E4.3719
G1 X118.491 Y127.591 E4.38145
G1 X101.509 Y127.591 E4.94628
G1 X100.974 Y127.551 E4.96412
G1 X100.451 Y127.432 E4.98196
G1 X99.952 Y127.237 E4.99978
G1 X99.487 Y126.969 E5.01763
G1 X99.067 Y126.636 E5.03546
G1 X98.701 Y126.244 E5.0533
G1 X98.398 Y125.802 E5.07112
G1 X98.163 Y125.319 E5.08899
G1 X98.003 Y124.808 E5.10679
G1 X97.92 Y124.278 E5.12464
G1 X97.909 Y123.991 E5.13419
G1 X97.909 Y110.009 E5.59923
G1 X97.949 Y109.474 E5.61708
G1 X98.068 Y108.951 E5.63492
G1 X98.263 Y108.452 E5.65274
G1 X98.531 Y107.987 E5.67059
G1 X98.864 Y107.567 E5.68841
G1 X99.256 Y107.201 E5.70625
G0 F1500 X99.258 Y107.734
G1 F1200 X99.645 Y107.408 E5.72308
G1 X100.078 Y107.147 E5.7399
G1 X100.546 Y106.957 E5.7567
G1 X101.039 Y106.844 E5.77352
G1 X101.509 Y106.809 E5.78919
G1 X118.491 Y106.81 E6.35402
G1 X118.995 Y106.85 E6.37083
G1 X119.487 Y106.969 E6.38767
G1 X119.953 Y107.164 E6.40447
G1 X120.383 Y107.429 E6.42127
G1 X120.766 Y107.76 E6.43811
G1 X121.092 Y108.146 E6.45491
G1 X121.353 Y108.579 E6.47173
G1 X121.543 Y109.048 E6.48856
G1 X121.656 Y109.54 E6.50535
G1 X121.691 Y110.01 E6.52102
G1 X121.691 Y123.991 E6.98603
G1 X121.651 Y124.495 E7.00285
G1 X121.532 Y124.986 E7.01965
G1 X121.338 Y125.453 E7.03647
G1 X121.072 Y125.883 E7.05329
G1 X120.742 Y126.266 E7.0701
G1 X120.355 Y126.592 E7.08693
G1 X119.922 Y126.853 E7.10375
G1 X119.454 Y127.043 E7.12055
G1 X118.961 Y127.156 E7.13737
G1 X118.491 Y127.191 E7.15305
G1 X101.509 Y127.191 E7.71787
G1 X101.005 Y127.151 E7.73469
G1 X100.514 Y127.032 E7.75149
G1 X100.047 Y126.838 E7.76831
G1 X99.617 Y126.572 E7.78513
G1 X99.234 Y126.242 E7.80194
G1 X98.908 Y125.855 E7.81877
G1 X98.647 Y125.422 E7.83559
G1 X98.457 Y124.954 E7.85239
G1 X98.344 Y124.461 E7.86921
G1 X98.309 Y123.991 E7.88489
G1 X98.309 Y110.009 E8.34993
G1 X98.349 Y109.505 E8.36674
G1 X98.468 Y109.014 E8.38355
G1 X98.662 Y108.547 E8.40037
G1 X98.928 Y108.117 E8.41718
G1 X99.258 Y107.734 E8.434
G1 F2700 E1.934
G0 F1500 X102.114 Y109.335
G0 X102.114 Y110.614
G0 X109.567 Y114.029
;TYPE:WALL-INNER
G1 F2700 E8.434
G1 F1200 X109.188 Y114.109 E8.44688
G1 X108.797 Y114.249 E8.4607
G1 X108.462 Y114.421 E8.47322
G1 X108.126 Y114.653 E8.4868
G1 X107.855 Y114.901 E8.49902
G1 X107.603 Y115.194 E8.51187
G1 X107.38 Y115.534 E8.5254
G1 X107.216 Y115.874 E8.53795
G1 X107.087 Y116.282 E8.55218
G1 X107.019 Y116.651 E8.56466
G1 X106.998 Y117.004 E8.57643
G1 X107.026 Y117.413 E8.59006
G1 X107.104 Y117.79 E8.60287
G1 X107.249 Y118.2 E8.61733
G1 X107.421 Y118.538 E8.62994
G1 X107.653 Y118.874 E8.64352
G1 X107.901 Y119.145 E8.65574
G1 X108.191 Y119.395 E8.66848
G1 X108.498 Y119.599 E8.68074
G1 X108.882 Y119.786 E8.69494
G1 X109.236 Y119.904 E8.70735
G1 X109.64 Y119.98 E8.72103
G1 X110.047 Y119.999 E8.73458
G1 X110.417 Y119.974 E8.74691
G1 X110.83 Y119.885 E8.76096
G1 X111.187 Y119.758 E8.77357
G1 X111.553 Y119.57 E8.78725
G1 X111.858 Y119.358 E8.79961
G1 X112.15 Y119.095 E8.81268
G1 X112.421 Y118.771 E8.82673
G1 X112.62 Y118.466 E8.83884
G1 X112.784 Y118.126 E8.85139
G1 X112.913 Y117.718 E8.86563
G1 X112.981 Y117.349 E8.87811
G1 X113.002 Y117 E8.88973
G1 X112.979 Y116.609 E8.90276
G1 X112.891 Y116.192 E8.91694
G1 X112.758 Y115.816 E8.9302
G1 X112.57 Y115.447 E8.94398
G1 X112.355 Y115.137 E8.95652
G1 X112.067 Y114.826 E8.97062
G1 X111.79 Y114.591 E8.9827
G1 X111.484 Y114.389 E8.9949
G1 X111.127 Y114.217 E9.00808
G1 X110.723 Y114.089 E9.02217
G1 X110.37 Y114.02 E9.03414
G1 X110.013 Y113.999 E9.04603
G1 X109.567 Y114.029 E9.0609
G0 F1500 X111.305 Y114.704
G0 X111.817 Y115.087
G0 X111.942 Y115.241
G0 X117.5 Y123
G1 F1200 X102.5 Y123 E9.5598
G1 X102.5 Y111 E9.95892
G1 X117.5 Y111 E10.45782
G1 X117.5 Y123 E10.85695
G0 F1500 X117.9 Y123.4
G1 F1200 X102.1 Y123.4 E11.38246
G1 X102.1 Y110.6 E11.80819
G1 X117.9 Y110.6 E12.3337
G1 X117.9 Y123.4 E12.75943
G0 F1500 X117.83 Y123.33
G0 X112.073 Y115.363
G0 X111.573 Y114.88
G0 X110.993 Y114.553
G0 X110.615 Y114.455
G0 X109.609 Y114.327
G0 X109.622 Y114.426
G1 F1200 X109.297 Y114.495 E12.77048
G1 X108.956 Y114.617 E12.78252
G1 X108.668 Y114.765 E12.79329
G1 X108.376 Y114.967 E12.8051
G1 X108.142 Y115.18 E12.81563
G1 X107.923 Y115.435 E12.82681
G1 X107.729 Y115.731 E12.83858
G1 X107.589 Y116.022 E12.84932
G1 X107.476 Y116.379 E12.86177
G1 X107.417 Y116.699 E12.87259
G1 X107.399 Y117.002 E12.88269
G1 X107.423 Y117.359 E12.89459
G1 X107.49 Y117.682 E12.90556
G1 X107.617 Y118.042 E12.91826
G1 X107.765 Y118.332 E12.92909
G1 X107.967 Y118.624 E12.9409
G1 X108.18 Y118.858 E12.95142
G1 X108.433 Y119.076 E12.96253
G1 X108.697 Y119.251 E12.97306
G1 X109.033 Y119.415 E12.9855
G1 X109.337 Y119.516 E12.99615
G1 X109.686 Y119.582 E13.00797
G1 X110.043 Y119.598 E13.01985
G1 X110.361 Y119.577 E13.03045
G1 X110.72 Y119.499 E13.04267
G1 X111.028 Y119.39 E13.05354
G1 X111.347 Y119.226 E13.06547
G1 X111.609 Y119.044 E13.07608
G1 X111.861 Y118.817 E13.08736
G1 X112.099 Y118.533 E13.09968
G1 X112.271 Y118.269 E13.11016
G1 X112.411 Y117.978 E13.1209
G1 X112.524 Y117.621 E13.13336
G1 X112.583 Y117.301 E13.14418
G1 X112.601 Y117 E13.15421
G1 X112.581 Y116.662 E13.16547
G1 X112.505 Y116.3 E13.17778
G1 X112.39 Y115.974 E13.18927
G1 X112.226 Y115.653 E13.20126
G1 X112.042 Y115.388 E13.21199
G1 X111.79 Y115.115 E13.22435
G1 X111.55 Y114.912 E13.2348
G1 X111.286 Y114.738 E13.24532
G1 X110.979 Y114.59 E13.25666
G1 X110.624 Y114.477 E13.26905
G1 X110.32 Y114.418 E13.27935
G1 X110.014 Y114.4 E13.28954
G1 X109.622 Y114.426 E13.30261
G0 F1500 X109.677 Y114.823
;TYPE:WALL-OUTER
G1 F1200 X109.407 Y114.881 E13.31179
G1 X109.115 Y114.985 E13.3221
G1 X108.874 Y115.109 E13.33112
G1 X108.626 Y115.281 E13.34116
G1 X108.429 Y115.46 E13.35001
G1 X108.243 Y115.676 E13.35949
G1 X108.078 Y115.928 E13.36951
G1 X107.962 Y116.17 E13.37843
G1 X107.865 Y116.476 E13.38911
G1 X107.815 Y116.747 E13.39828
G1 X107.8 Y117.001 E13.40674
G1 X107.82 Y117.305 E13.41687
G1 X107.876 Y117.574 E13.42601
G1 X107.985 Y117.884 E13.43694
G1 X108.109 Y118.126 E13.44598
G1 X108.281 Y118.374 E13.45602
G1 X108.46 Y118.571 E13.46488
G1 X108.675 Y118.757 E13.47433
G1 X108.896 Y118.903 E13.48314
G1 X109.184 Y119.044 E13.49381
G1 X109.438 Y119.128 E13.5027
G1 X109.732 Y119.184 E13.51266
G1 X110.039 Y119.197 E13.52288
G1 X110.306 Y119.18 E13.53178
G1 X110.61 Y119.114 E13.54212
G1 X110.869 Y119.022 E13.55127
G1 X111.141 Y118.882 E13.56144
G1 X111.36 Y118.73 E13.57031
G1 X111.572 Y118.539 E13.5798
G1 X111.777 Y118.294 E13.59042
G1 X111.922 Y118.072 E13.59924
G1 X112.038 Y117.83 E13.60817
G1 X112.135 Y117.524 E13.61884
G1 X112.185 Y117.253 E13.62801
G1 X112.2 Y117 E13.63644
G1 X112.183 Y116.715 E13.64594
G1 X112.119 Y116.408 E13.65637
G1 X112.022 Y116.132 E13.6661
G1 X111.882 Y115.859 E13.6763
G1 X111.729 Y115.639 E13.68521
G1 X111.513 Y115.404 E13.69583
G1 X111.31 Y115.233 E13.70466
G1 X111.088 Y115.087 E13.7135
G1 X110.83 Y114.962 E13.72303
G1 X110.525 Y114.865 E13.73368
G1 X110.27 Y114.816 E13.74231
G1 X110.015 Y114.801 E13.75081
G1 X109.677 Y114.823 E13.76207
G0 F1500 X109.482 Y114.865
G0 X109.379 Y114.376
G0 X110.324 Y114.379
G0 X110.993 Y114.553
G0 X111.573 Y114.88
G0 X111.978 Y115.27
G0 X117.83 Y123.33
G0 X118.3 Y123.8
G1 F1200 X101.7 Y123.8 E14.31419
G1 X101.7 Y110.2 E14.76653
G1 X118.3 Y110.2 E15.31865
G1 X118.3 Y123.8 E15.77099
G0 F1500 X118.1 Y123.8
G0 X117.83 Y123.33
G0 X117.11 Y122.61
;TYPE:SKIN
G1 F1200 X102.89 Y122.61 E16.24394
G1 X102.89 Y111.39 E16.61712
G1 X117.11 Y111.39 E17.09008
G1 X117.11 Y122.61 E17.46326
G0 F1500 X112.735 Y119.003
G1 F1200 X112.961 Y118.658 E17.47698
G1 X113.147 Y118.27 E17.49129
G1 X113.292 Y117.812 E17.50727
G1 X113.369 Y117.396 E17.52134
G1 X113.392 Y117 E17.53453
G1 X113.367 Y116.557 E17.54929
G1 X113.267 Y116.086 E17.56531
G1 X113.117 Y115.662 E17.58026
G1 X112.905 Y115.246 E17.59579
G1 X112.66 Y114.892 E17.61011
G1 X112.338 Y114.543 E17.62591
G1 X112.024 Y114.279 E17.63955
G1 X111.677 Y114.049 E17.6534
G1 X111.271 Y113.854 E17.66838
G1 X110.82 Y113.711 E17.68411
G1 X110.419 Y113.632 E17.69771
G1 X110.011 Y113.609 E17.7113
G1 X109.513 Y113.641 E17.7279
G1 X109.081 Y113.733 E17.74259
G1 X108.641 Y113.89 E17.75813
G1 X108.261 Y114.086 E17.77235
G1 X107.882 Y114.347 E17.78765
G1 X107.574 Y114.63 E17.80156
G1 X107.291 Y114.958 E17.81597
G1 X107.04 Y115.341 E17.8312
G1 X106.853 Y115.73 E17.84556
G1 X106.708 Y116.188 E17.86154
G1 X106.631 Y116.604 E17.87561
G1 X106.608 Y117.006 E17.889
G1 X106.638 Y117.466 E17.90433
G1 X106.728 Y117.895 E17.91891
G1 X106.89 Y118.354 E17.9351
G1 X107.085 Y118.738 E17.94943
G1 X107.347 Y119.118 E17.96478
G1 X107.628 Y119.426 E17.97864
G1 X107.955 Y119.707 E17.99298
G1 X108.303 Y119.938 E18.00688
G1 X108.734 Y120.148 E18.02282
G1 X109.138 Y120.282 E18.03698
G1 X109.595 Y120.368 E18.05245
G1 X110.051 Y120.389 E18.06763
G1 X110.471 Y120.362 E18.08163
G1 X110.937 Y120.261 E18.09749
G1 X111.343 Y120.117 E18.11181
G1 X111.754 Y119.905 E18.1272
G1 X112.1 Y119.664 E18.14122
G1 X112.431 Y119.366 E18.15603
G1 X112.735 Y119.003 E18.17178
G0 F1500 X116.93 Y111.838
G1 F1200 X116.66 Y111.569 E18.18446
G0 F1500 X116.094 Y111.569
G1 F1200 X116.93 Y112.404 E18.22376
G1 X117 Y112.474
G0 F1500 X116.93 Y112.97
G1 F1200 X115.529 Y111.569 E18.28966
G1 X115.459 Y111.499
G0 F1500 X114.963 Y111.569
G1 F1200 X116.93 Y113.535 E18.38215
G1 X117 Y113.605
G0 F1500 X116.93 Y114.101
G1 F1200 X114.397 Y111.569 E18.50128
G1 X114.327 Y111.499
G0 F1500 X113.832 Y111.569
G1 F1200 X116.93 Y114.667 E18.647
G1 X117 Y114.737
G0 F1500 X116.93 Y115.232
G1 F1200 X113.266 Y111.569 E18.81932
G1 X113.196 Y111.499
G0 F1500 X112.7 Y111.569
G1 F1200 X116.93 Y115.798 E19.01826
G1 X117 Y115.868
G0 F1500 X116.93 Y116.364
G1 F1200 X112.135 Y111.569 E19.2438
G1 X112.065 Y111.499
G0 F1500 X111.569 Y111.569
G1 F1200 X116.93 Y116.93 E19.49597
G1 X117 Y117
G0 F1500 X116.93 Y117.495
G1 F1200 X111.003 Y111.569 E19.77473
G1 X110.933 Y111.499
G0 F1500 X110.438 Y111.569
G1 F1200 X116.93 Y118.061 E20.08009
G1 X117 Y118.131
G0 F1500 X116.93 Y118.627
G1 F1200 X109.872 Y111.569 E20.41208
G1 X109.802 Y111.499
G0 F1500 X109.306 Y111.569
G1 F1200 X111.502 Y113.764 E20.51535
G1 X111.572 Y113.834
G0 F1500 X110.668 Y113.497
G1 F1200 X108.741 Y111.569 E20.60601
G1 X108.671 Y111.499
G0 F1500 X108.175 Y111.569
G1 F1200 X110.035 Y113.429 E20.6935
G1 X110.105 Y113.499
G0 F1500 X109.5 Y113.46
G1 F1200 X107.609 Y111.569 E20.78245
G1 X107.539 Y111.499
G0 F1500 X107.043 Y111.569
G1 F1200 X109.032 Y113.557 E20.87598
G1 X109.102 Y113.627
G0 F1500 X108.615 Y113.706
G1 F1200 X106.478 Y111.569 E20.9765
G1 X106.408 Y111.499
G0 F1500 X105.912 Y111.569
G1 F1200 X108.237 Y113.894 E21.08586
G1 X108.307 Y113.964
G0 F1500 X107.894 Y114.117
G1 F1200 X105.346 Y111.569 E21.20571
G1 X105.276 Y111.499
G0 F1500 X104.781 Y111.569
G1 F1200 X107.585 Y114.373 E21.3376
G1 X107.655 Y114.443
G0 F1500 X107.308 Y114.662
G1 F1200 X104.215 Y111.569 E21.48309
G1 X104.145 Y111.499
G0 F1500 X103.649 Y111.569
G1 F1200 X107.06 Y114.98 E21.64353
G1 X107.13 Y115.05
G0 F1500 X106.845 Y115.33
G1 F1200 X103.084 Y111.569 E21.82044
G1 X103.014 Y111.499
G0 F1500 X103.07 Y112.12
G1 F1200 X106.668 Y115.719 E21.9897
G1 X106.738 Y115.789
G0 F1500 X106.533 Y116.15
G1 F1200 X103.07 Y112.686 E22.15261
G1 X103 Y112.616
G0 F1500 X103.07 Y113.252
G1 F1200 X106.449 Y116.632 E22.31157
G1 X106.519 Y116.702
G0 F1500 X106.44 Y117.188
G1 F1200 X103.07 Y113.818 E22.47009
G1 X103 Y113.748
G0 F1500 X103.07 Y114.383
G1 F1200 X106.534 Y117.848 E22.63305
G1 X106.604 Y117.918
G0 F1500 X106.91 Y118.789
G1 F1200 X103.07 Y114.949 E22.81367
G1 X103 Y114.879
G0 F1500 X103.07 Y115.515
G1 F1200 X109.984 Y122.429 E23.13888
G1 X110.054 Y122.499
G0 F1500 X110.549 Y122.429
G1 F1200 X108.214 Y120.094 E23.24871
G1 X108.144 Y120.024
G0 F1500 X109.153 Y120.466
G1 F1200 X111.115 Y122.429 E23.34102
G1 X111.185 Y122.499
G0 F1500 X111.681 Y122.429
G1 F1200 X109.809 Y120.557 E23.42908
G1 X109.739 Y120.487
G0 F1500 X110.366 Y120.548
G1 F1200 X112.246 Y122.429 E23.51753
G1 X112.316 Y122.499
G0 F1500 X112.812 Y122.429
G1 F1200 X110.848 Y120.464 E23.60993
G1 X110.778 Y120.394
G0 F1500 X111.279 Y120.33
G1 F1200 X113.378 Y122.429 E23.70866
G1 X113.448 Y122.499
G0 F1500 X113.943 Y122.429
G1 F1200 X111.667 Y120.152 E23.81574
G1 X111.597 Y120.082
G0 F1500 X112.019 Y119.939
G1 F1200 X114.509 Y122.429 E23.93287
G1 X114.579 Y122.499
G0 F1500 X115.075 Y122.429
G1 F1200 X112.338 Y119.691 E24.06163
G1 X112.268 Y119.621
G0 F1500 X112.625 Y119.413
G1 F1200 X115.64 Y122.429 E24.20347
G1 X115.71 Y122.499
G0 F1500 X116.206 Y122.429
G1 F1200 X112.881 Y119.104 E24.35987
G1 X112.811 Y119.034
G0 F1500 X113.105 Y118.762
G1 F1200 X116.772 Y122.429 E24.53235
G1 X116.842 Y122.499
G0 F1500 X116.93 Y122.021
G1 F1200 X113.291 Y118.382 E24.70352
G1 X113.221 Y118.312
G0 F1500 X113.433 Y117.958
G1 F1200 X116.93 Y121.455 E24.86801
G1 X117 Y121.525
G0 F1500 X116.93 Y120.889
G1 F1200 X113.533 Y117.492 E25.02779
G1 X113.463 Y117.422
G0 F1500 X113.569 Y116.963
G1 F1200 X116.93 Y120.324 E25.18588
G1 X117 Y120.394
G0 F1500 X116.93 Y119.758
G1 F1200 X113.503 Y116.331 E25.34708
G1 X113.433 Y116.261
G0 F1500 X113.234 Y115.497
G1 F1200 X116.93 Y119.192 E25.5209
G1 X117 Y119.262
G0 F1500 X109.418 Y122.429
G1 F1200 X103.07 Y116.08 E25.81952
