;FLAVOR:Marlin
;TIME:2402
;Filament used: 0.983005m
;Layer height: 0.16
;Generated with Cura_SteamEngine 3.1.0
M82 ; absolute extrusion mode
G28 ;Home
G29 ; AutoLevel
M140 S60 ; set the bed temperature and continue on
M104 S200; set the extruder temperature and continue on
M109 S200; set the extruder temperature and continue on
G1 Z15.0 F6000 ;Move the platform down 15mm
G92 E0
G1 F200 E3
G92 E0
;LAYER_COUNT:138
;LAYER:0
M107
G0 F1500 X98.865 Y107.007 Z0.2
;TYPE:SKIRT
G1 F900 X99.315 Y106.665 E0.0188
G1 X99.808 Y106.389 E0.03759
G1 X100.336 Y106.185 E0.05642
G1 X100.886 Y106.058 E0.07519
G1 X101.509 Y106.009 E0.09598
G1 X118.491 Y106.01 E0.6608
G1 X119.055 Y106.05 E0.67961
G1 X119.608 Y106.169 E0.69842
G1 X120.138 Y106.365 E0.71721
G1 X120.636 Y106.633 E0.73602
G1 X121.09 Y106.97 E0.75483
G1 X121.493 Y107.366 E0.77362
G1 X121.836 Y107.816 E0.79244
G1 X122.111 Y108.309 E0.81122
G1 X122.315 Y108.837 E0.83004
G1 X122.442 Y109.388 E0.84885
G1 X122.491 Y110.01 E0.8696
G1 X122.491 Y123.991 E1.33461
G1 X122.451 Y124.555 E1.35342
G1 X122.332 Y125.108 E1.37223
G1 X122.136 Y125.638 E1.39103
G1 X121.868 Y126.135 E1.40981
G1 X121.532 Y126.59 E1.42862
G1 X121.135 Y126.993 E1.44743
G1 X120.685 Y127.335 E1.46623
G1 X120.192 Y127.611 E1.48503
G1 X119.664 Y127.815 E1.50385
G1 X119.114 Y127.942 E1.52263
G1 X118.491 Y127.991 E1.54341
G1 X101.509 Y127.991 E2.10824
G1 X100.945 Y127.951 E2.12704
G1 X100.392 Y127.832 E2.14586
G1 X99.862 Y127.636 E2.16465
G1 X99.365 Y127.368 E2.18343
G1 X98.91 Y127.032 E2.20224
G1 X98.507 Y126.635 E2.22106
G1 X98.165 Y126.185 E2.23986
G1 X97.889 Y125.692 E2.25865
G1 X97.685 Y125.164 E2.27748
G1 X97.558 Y124.614 E2.29625
G1 X97.509 Y123.991 E2.31704
G1 X97.509 Y110.009 E2.78208
G1 X97.549 Y109.445 E2.80088
G1 X97.668 Y108.892 E2.8197
G1 X97.864 Y108.362 E2.83849
G1 X98.132 Y107.865 E2.85727
G1 X98.468 Y107.41 E2.87609
G1 X98.865 Y107.007 E2.8949
G0 F1500 X99.256 Y107.201
G1 F900 X99.698 Y106.898 E2.91272
G1 X100.181 Y106.663 E2.93059
G1 X100.692 Y106.503 E2.9484
G1 X101.222 Y106.42 E2.96624
G1 X101.509 Y106.409 E2.97579
G1 X118.491 Y106.41 E3.54062
G1 X119.026 Y106.45 E3.55846
G1 X119.549 Y106.569 E3.5763
G1 X120.048 Y106.764 E3.59412
G1 X120.513 Y107.032 E3.61197
G1 X120.933 Y107.365 E3.6298
G1 X121.299 Y107.757 E3.64764
G1 X121.603 Y108.199 E3.66548
G1 X121.837 Y108.682 E3.68333
G1 X121.997 Y109.194 E3.70117
G1 X122.08 Y109.723 E3.71898
G1 X122.091 Y110.01 E3.72853
G1 X122.091 Y123.991 E4.19354
G1 X122.051 Y124.526 E4.21139
G1 X121.932 Y125.049 E4.22923
G1 X121.737 Y125.548 E4.24705
G1 X121.469 Y126.013 E4.2649
G1 X121.136 Y126.433 E4.28272
G1 X120.744 Y126.799 E4.30056
G1 X120.302 Y127.102 E4.31838
G1 X119.819 Y127.337 E4.33625
G1 X119.308 Y127.497 E4.35406
G1 X118.778 Y127.58 E4.3719
G1 X118.491 Y127.591 E4.38145
G1 X101.509 Y127.591 E4.94628
G1 X100.974 Y127.551 E4.96412
G1 X100.451 Y127.432 E4.98196
G1 X99.952 Y127.237 E4.99978
G1 X99.487 Y126.969 E5.01763
G1 X99.067 Y126.636 E5.03546
G1 X98.701 Y126.244 E5.0533
G1 X98.398 Y125.802 E5.07112
G1 X98.163 Y125.319 E5.08899
G1 X98.003 Y124.808 E5.10679
G1 X97.92 Y124.278 E5.12464
G1 X97.909 Y123.991 E5.13419
G1 X97.909 Y110.009 E5.59923
G1 X97.949 Y109.474 E5.61708
G1 X98.068 Y108.951 E5.63492
G1 X98.263 Y108.452 E5.65274
G1 X98.531 Y107.987 E5.67059
G1 X98.864 Y107.567 E5.68841
G1 X99.256 Y107.201 E5.70625
G0 F1500 X99.258 Y107.734
G1 F900 X99.645 Y107.408 E5.72308
G1 X100.078 Y107.147 E5.7399
G1 X100.546 Y106.957 E5.7567
G1 X101.039 Y106.844 E5.77352
G1 X101.509 Y106.809 E5.78919
G1 X118.491 Y106.81 E6.35402
G1 X118.995 Y106.85 E6.37083
G1 X119.487 Y106.969 E6.38767
G1 X119.953 Y107.164 E6.40447
G1 X120.383 Y107.429 E6.42127
G1 X120.766 Y107.76 E6.43811
G1 X121.092 Y108.146 E6.45491
G1 X121.353 Y108.579 E6.47173
G1 X121.543 Y109.048 E6.48856
G1 X121.656 Y109.54 E6.50535
G1 X121.691 Y110.01 E6.52102
G1 X121.691 Y123.991 E6.98603
G1 X121.651 Y124.495 E7.00285
G1 X121.532 Y124.986 E7.01965
G1 X121.338 Y125.453 E7.03647
G1 X121.072 Y125.883 E7.05329
G1 X120.742 Y126.266 E7.0701
G1 X120.355 Y126.592 E7.08693
G1 X119.922 Y126.853 E7.10375
G1 X119.454 Y127.043 E7.12055
G1 X118.961 Y127.156 E7.13737
G1 X118.491 Y127.191 E7.15305
G1 X101.509 Y127.191 E7.71787
G1 X101.005 Y127.151 E7.73469
G1 X100.514 Y127.032 E7.75149
G1 X100.047 Y126.838 E7.76831
G1 X99.617 Y126.572 E7.78513
G1 X99.234 Y126.242 E7.80194
G1 X98.908 Y125.855 E7.81877
G1 X98.647 Y125.422 E7.83559
G1 X98.457 Y124.954 E7.85239
G1 X98.344 Y124.461 E7.86921
G1 X98.309 Y123.991 E7.88489
G1 X98.309 Y110.009 E8.34993
G1 X98.349 Y109.505 E8.36674
G1 X98.468 Y109.014 E8.38355
G1 X98.662 Y108.547 E8.40037
G1 X98.928 Y108.117 E8.41718
G1 X99.258 Y107.734 E8.434
G1 F2700 E1.934
G0 F1500 X102.114 Y109.335
G0 X102.114 Y110.614
G0 X109.563 Y114.03
;TYPE:WALL-INNER
G1 F2700 E8.434
G1 F900 X109.187 Y114.109 E8.44678
G1 X108.792 Y114.251 E8.46074
G1 X108.462 Y114.421 E8.47309
G1 X108.124 Y114.655 E8.48676
G1 X107.854 Y114.901 E8.49891
G1 X107.602 Y115.194 E8.51176
G1 X107.377 Y115.538 E8.52543
G1 X107.22 Y115.868 E8.53759
G1 X107.103 Y116.212 E8.54967
G1 X107.018 Y116.65 E8.56451
G1 X106.998 Y117.005 E8.57634
G1 X107.026 Y117.413 E8.58994
G1 X107.103 Y117.786 E8.60261
G1 X107.251 Y118.203 E8.61733
G1 X107.421 Y118.538 E8.62982
G1 X107.655 Y118.875 E8.64347
G1 X107.9 Y119.146 E8.65562
G1 X108.198 Y119.402 E8.66868
G1 X108.563 Y119.634 E8.68307
G1 X108.888 Y119.789 E8.69504
G1 X109.237 Y119.904 E8.70727
G1 X109.64 Y119.98 E8.72091
G1 X110.057 Y119.999 E8.73479
G1 X110.419 Y119.974 E8.74686
G1 X110.833 Y119.883 E8.76096
G1 X111.189 Y119.758 E8.77351
G1 X111.557 Y119.566 E8.78731
G1 X111.858 Y119.358 E8.79948
G1 X112.15 Y119.095 E8.81255
G1 X112.425 Y118.765 E8.82684
G1 X112.624 Y118.461 E8.83892
G1 X112.78 Y118.131 E8.85106
G1 X112.897 Y117.788 E8.86312
G1 X112.982 Y117.35 E8.87796
G1 X113.002 Y116.998 E8.88968
G1 X112.979 Y116.613 E8.90251
G1 X112.891 Y116.195 E8.91672
G1 X112.758 Y115.815 E8.93011
G1 X112.568 Y115.445 E8.94394
G1 X112.36 Y115.144 E8.95611
G1 X112.117 Y114.873 E8.96822
G1 X111.791 Y114.591 E8.98256
G1 X111.484 Y114.391 E8.99474
G1 X111.136 Y114.22 E9.00764
G1 X110.79 Y114.105 E9.01977
G1 X110.375 Y114.02 E9.03386
G1 X110.016 Y113.999 E9.04582
G1 X109.563 Y114.03 E9.06092
G0 F1500 X111.305 Y114.705
G0 X111.864 Y115.131
G0 X117.5 Y123
G1 F900 X102.5 Y123 E9.55982
G1 X102.5 Y111 E9.95894
G1 X117.5 Y111 E10.45784
G1 X117.5 Y123 E10.85697
G0 F1500 X117.9 Y123.4
G1 F900 X102.1 Y123.4 E11.38248
G1 X102.1 Y110.6 E11.80821
G1 X117.9 Y110.6 E12.33372
G1 X117.9 Y123.4 E12.75945
G0 F1500 X117.83 Y123.33
G0 X111.864 Y115.131
G0 X111.305 Y114.705
G0 X110.697 Y114.454
G0 X109.605 Y114.328
G0 X109.618 Y114.427
G1 F900 X109.297 Y114.495 E12.77036
G1 X108.952 Y114.619 E12.78255
G1 X108.668 Y114.765 E12.79317
G1 X108.374 Y114.969 E12.80508
G1 X108.141 Y115.181 E12.81555
G1 X107.922 Y115.435 E12.82671
G1 X107.727 Y115.734 E12.83858
G1 X107.591 Y116.019 E12.84908
G1 X107.491 Y116.315 E12.85947
G1 X107.416 Y116.7 E12.87252
G1 X107.399 Y117.003 E12.88261
G1 X107.423 Y117.359 E12.89448
G1 X107.489 Y117.678 E12.90532
G1 X107.619 Y118.045 E12.91827
G1 X107.765 Y118.332 E12.92898
G1 X107.969 Y118.626 E12.94088
G1 X108.18 Y118.859 E12.95133
G1 X108.437 Y119.08 E12.96261
G1 X108.757 Y119.283 E12.97521
G1 X109.038 Y119.417 E12.98557
G1 X109.337 Y119.516 E12.99604
G1 X109.686 Y119.582 E13.00785
G1 X110.052 Y119.598 E13.02004
G1 X110.362 Y119.577 E13.03037
G1 X110.723 Y119.498 E13.04266
G1 X111.029 Y119.39 E13.05346
G1 X111.35 Y119.223 E13.06549
G1 X111.609 Y119.044 E13.07596
G1 X111.861 Y118.817 E13.08724
G1 X112.103 Y118.527 E13.09981
G1 X112.274 Y118.265 E13.11021
G1 X112.409 Y117.981 E13.12067
G1 X112.509 Y117.685 E13.13106
G1 X112.584 Y117.3 E13.14411
G1 X112.601 Y116.999 E13.15414
G1 X112.581 Y116.666 E13.16523
G1 X112.505 Y116.302 E13.1776
G1 X112.39 Y115.973 E13.18919
G1 X112.224 Y115.651 E13.20124
G1 X112.045 Y115.392 E13.21171
G1 X111.836 Y115.159 E13.22212
G1 X111.55 Y114.911 E13.23471
G1 X111.286 Y114.739 E13.24519
G1 X110.984 Y114.591 E13.25638
G1 X110.687 Y114.492 E13.26679
G1 X110.323 Y114.418 E13.27915
G1 X110.018 Y114.4 E13.28931
G1 X109.618 Y114.427 E13.30264
G0 F1500 X109.673 Y114.824
;TYPE:WALL-OUTER
G1 F900 X109.407 Y114.881 E13.31169
G1 X109.112 Y114.987 E13.32212
G1 X108.874 Y115.109 E13.33101
G1 X108.623 Y115.283 E13.34117
G1 X108.428 Y115.46 E13.34993
G1 X108.243 Y115.676 E13.35939
G1 X108.076 Y115.931 E13.36953
G1 X107.962 Y116.169 E13.3783
G1 X107.879 Y116.417 E13.387
G1 X107.814 Y116.75 E13.39829
G1 X107.8 Y117.001 E13.40665
G1 X107.82 Y117.305 E13.41678
G1 X107.875 Y117.57 E13.42578
G1 X107.987 Y117.887 E13.43696
G1 X108.109 Y118.126 E13.44589
G1 X108.283 Y118.377 E13.45605
G1 X108.46 Y118.572 E13.46481
G1 X108.676 Y118.758 E13.47429
G1 X108.951 Y118.932 E13.48511
G1 X109.188 Y119.045 E13.49384
G1 X109.438 Y119.128 E13.50261
G1 X109.732 Y119.184 E13.51256
G1 X110.047 Y119.197 E13.52305
G1 X110.306 Y119.18 E13.53168
G1 X110.613 Y119.113 E13.54213
G1 X110.869 Y119.022 E13.55117
G1 X111.143 Y118.88 E13.56143
G1 X111.36 Y118.73 E13.5702
G1 X111.572 Y118.539 E13.5797
G1 X111.781 Y118.289 E13.59053
G1 X111.924 Y118.069 E13.59926
G1 X112.038 Y117.831 E13.60804
G1 X112.121 Y117.583 E13.61674
G1 X112.186 Y117.25 E13.62802
G1 X112.2 Y117 E13.63635
G1 X112.183 Y116.719 E13.64571
G1 X112.119 Y116.409 E13.65624
G1 X112.022 Y116.132 E13.666
G1 X111.88 Y115.857 E13.6763
G1 X111.73 Y115.64 E13.68507
G1 X111.555 Y115.445 E13.69378
G1 X111.308 Y115.231 E13.70465
G1 X111.088 Y115.087 E13.7134
G1 X110.832 Y114.962 E13.72287
G1 X110.584 Y114.879 E13.73157
G1 X110.271 Y114.816 E13.74219
G1 X110.019 Y114.801 E13.75059
G1 X109.673 Y114.824 E13.76212
G0 F1500 X109.478 Y114.865
G0 X109.376 Y114.377
G0 X110.328 Y114.379
G0 X110.999 Y114.554
G0 X111.574 Y114.88
G0 X111.979 Y115.275
G0 X117.83 Y123.33
G0 X118.3 Y123.8
G1 F900 X101.7 Y123.8 E14.31424
G1 X101.7 Y110.2 E14.76658
G1 X118.3 Y110.2 E15.3187
G1 X118.3 Y123.8 E15.77103
G0 F1500 X118.1 Y123.8
G0 X117.83 Y123.33
G0 X117.11 Y122.61
;TYPE:SKIN
G1 F900 X102.89 Y122.61 E16.24399
G1 X102.89 Y111.39 E16.61717
G1 X117.11 Y111.39 E17.09013
G1 X117.11 Y122.61 E17.46331
G0 F1500 X112.431 Y119.366
G1 F900 X112.739 Y118.997 E17.4793
G1 X112.965 Y118.652 E17.49301
G1 X113.142 Y118.278 E17.50678
G1 X113.275 Y117.889 E17.52045
G1 X113.37 Y117.398 E17.53708
G1 X113.392 Y116.998 E17.55041
G1 X113.367 Y116.561 E17.56496
G1 X113.267 Y116.09 E17.58098
G1 X113.117 Y115.661 E17.5961
G1 X112.903 Y115.244 E17.61168
G1 X112.666 Y114.902 E17.62552
G1 X112.39 Y114.594 E17.63928
G1 X112.027 Y114.279 E17.65526
G1 X111.677 Y114.052 E17.66914
G1 X111.284 Y113.858 E17.68372
G1 X110.891 Y113.727 E17.6975
G1 X110.426 Y113.632 E17.71328
G1 X110.014 Y113.609 E17.727
G1 X109.509 Y113.642 E17.74384
G1 X109.08 Y113.733 E17.75842
G1 X108.636 Y113.892 E17.77411
G1 X108.261 Y114.086 E17.78815
G1 X107.88 Y114.349 E17.80355
G1 X107.573 Y114.628 E17.81735
G1 X107.29 Y114.96 E17.83186
G1 X107.036 Y115.347 E17.84725
G1 X106.858 Y115.721 E17.86103
G1 X106.725 Y116.112 E17.87477
G1 X106.63 Y116.602 E17.89137
G1 X106.608 Y117.007 E17.90486
G1 X106.638 Y117.466 E17.92016
G1 X106.727 Y117.891 E17.9346
G1 X106.892 Y118.357 E17.95104
G1 X107.085 Y118.739 E17.96528
G1 X107.349 Y119.118 E17.98064
G1 X107.627 Y119.425 E17.99441
G1 X107.966 Y119.716 E18.00927
G1 X108.374 Y119.975 E18.02535
G1 X108.742 Y120.152 E18.03893
G1 X109.14 Y120.282 E18.05285
G1 X109.595 Y120.368 E18.06826
G1 X110.061 Y120.389 E18.08377
G1 X110.475 Y120.362 E18.09757
G1 X110.94 Y120.259 E18.11341
G1 X111.345 Y120.117 E18.12768
G1 X111.759 Y119.901 E18.14322
G1 X112.1 Y119.664 E18.15703
G1 X112.431 Y119.366 E18.17184
G0 F1500 X116.93 Y111.838
G1 F900 X116.66 Y111.569 E18.18452
G0 F1500 X116.094 Y111.569
G1 F900 X116.93 Y112.404 E18.22382
G1 X117 Y112.474
G0 F1500 X116.93 Y112.97
G1 F900 X115.529 Y111.569 E18.28972
G1 X115.459 Y111.499
G0 F1500 X114.963 Y111.569
G1 F900 X116.93 Y113.535 E18.38221
G1 X117 Y113.605
G0 F1500 X116.93 Y114.101
G1 F900 X114.397 Y111.569 E18.50133
G1 X114.327 Y111.499
G0 F1500 X113.832 Y111.569
G1 F900 X116.93 Y114.667 E18.64706
G1 X117 Y114.737
G0 F1500 X116.93 Y115.232
G1 F900 X113.266 Y111.569 E18.81937
G1 X113.196 Y111.499
G0 F1500 X112.7 Y111.569
G1 F900 X116.93 Y115.798 E19.01832
G1 X117 Y115.868
G0 F1500 X116.93 Y116.364
G1 F900 X112.135 Y111.569 E19.24386
G1 X112.065 Y111.499
G0 F1500 X111.569 Y111.569
G1 F900 X116.93 Y116.93 E19.49602
G1 X117 Y117
G0 F1500 X116.93 Y117.495
G1 F900 X111.003 Y111.569 E19.77479
G1 X110.933 Y111.499
G0 F1500 X110.438 Y111.569
G1 F900 X116.93 Y118.061 E20.08015
G1 X117 Y118.131
G0 F1500 X116.93 Y118.627
G1 F900 X109.872 Y111.569 E20.41214
G1 X109.802 Y111.499
G0 F1500 X109.306 Y111.569
G1 F900 X111.501 Y113.764 E20.51539
G1 X111.571 Y113.834
G0 F1500 X110.667 Y113.496
G1 F900 X108.741 Y111.569 E20.606
G1 X108.671 Y111.499
G0 F1500 X108.175 Y111.569
G1 F900 X110.035 Y113.429 E20.69349
G1 X110.105 Y113.499
G0 F1500 X109.501 Y113.46
G1 F900 X107.609 Y111.569 E20.78246
G1 X107.539 Y111.499
G0 F1500 X107.043 Y111.569
G1 F900 X109.032 Y113.557 E20.87599
G1 X109.102 Y113.627
G0 F1500 X108.615 Y113.707
G1 F900 X106.478 Y111.569 E20.97654
G1 X106.408 Y111.499
G0 F1500 X105.912 Y111.569
G1 F900 X108.237 Y113.894 E21.0859
G1 X108.307 Y113.964
G0 F1500 X107.895 Y114.117
G1 F900 X105.346 Y111.569 E21.20577
G1 X105.276 Y111.499
G0 F1500 X104.781 Y111.569
G1 F900 X107.584 Y114.373 E21.33764
G1 X107.654 Y114.443
G0 F1500 X107.307 Y114.661
G1 F900 X104.215 Y111.569 E21.48308
G1 X104.145 Y111.499
G0 F1500 X103.649 Y111.569
G1 F900 X107.061 Y114.981 E21.64357
G1 X107.131 Y115.051
G0 F1500 X106.845 Y115.33
G1 F900 X103.084 Y111.569 E21.82047
G1 X103.014 Y111.499
G0 F1500 X103.07 Y112.12
G1 F900 X106.668 Y115.719 E21.98973
G1 X106.738 Y115.789
G0 F1500 X106.534 Y116.151
G1 F900 X103.07 Y112.686 E22.15269
G1 X103 Y112.616
G0 F1500 X103.07 Y113.252
G1 F900 X106.449 Y116.631 E22.31163
G1 X106.519 Y116.701
G0 F1500 X106.44 Y117.188
G1 F900 X103.07 Y113.818 E22.47015
G1 X103 Y113.748
G0 F1500 X103.07 Y114.383
G1 F900 X106.534 Y117.848 E22.63311
G1 X106.604 Y117.918
G0 F1500 X106.91 Y118.789
G1 F900 X103.07 Y114.949 E22.81373
G1 X103 Y114.879
G0 F1500 X103.07 Y115.515
G1 F900 X109.984 Y122.429 E23.13894
G1 X110.054 Y122.499
G0 F1500 X110.549 Y122.429
G1 F900 X108.192 Y120.071 E23.24983
G1 X108.122 Y120.001
G0 F1500 X109.153 Y120.466
G1 F900 X111.115 Y122.429 E23.34214
G1 X111.185 Y122.499
G0 F1500 X111.681 Y122.429
G1 F900 X109.808 Y120.556 E23.43024
G1 X109.738 Y120.486
G0 F1500 X110.366 Y120.548
G1 F900 X112.246 Y122.429 E23.51869
G1 X112.316 Y122.499
G0 F1500 X112.812 Y122.429
G1 F900 X110.846 Y120.463 E23.61117
G1 X110.776 Y120.393
G0 F1500 X111.279 Y120.33
G1 F900 X113.378 Y122.429 E23.7099
G1 X113.448 Y122.499
G0 F1500 X113.943 Y122.429
G1 F900 X111.666 Y120.151 E23.81703
G1 X111.596 Y120.081
G0 F1500 X112.019 Y119.938
G1 F900 X114.509 Y122.429 E23.93417
G1 X114.579 Y122.499
G0 F1500 X115.075 Y122.429
G1 F900 X112.338 Y119.691 E24.06293
G1 X112.268 Y119.621
G0 F1500 X112.625 Y119.413
G1 F900 X115.64 Y122.429 E24.20477
G1 X115.71 Y122.499
G0 F1500 X116.206 Y122.429
G1 F900 X112.882 Y119.105 E24.36113
G1 X112.812 Y119.035
G0 F1500 X113.106 Y118.763
G1 F900 X116.772 Y122.429 E24.53356
G1 X116.842 Y122.499
G0 F1500 X116.93 Y122.021
G1 F900 X113.291 Y118.382 E24.70473
G1 X113.221 Y118.312
G0 F1500 X113.439 Y117.964
G1 F900 X116.93 Y121.455 E24.86894
G1 X117 Y121.525
G0 F1500 X116.93 Y120.889
G1 F900 X113.534 Y117.494 E25.02865
G1 X113.464 Y117.424
G0 F1500 X113.569 Y116.963
G1 F900 X116.93 Y120.324 E25.18674
G1 X117 Y120.394
G0 F1500 X116.93 Y119.758
G1 F900 X113.501 Y116.329 E25.34803
G1 X113.431 Y116.259
G0 F1500 X113.236 Y115.498
G1 F900 X116.93 Y119.192 E25.52179
G1 X117 Y119.262
G0 F1500 X109.418 Y122.429
G1 F900 X103.07 Y116.08 E25.8204
G1 X103 Y116.01
G0 F1500 X103.07 Y116.646
G1 F900 X108.852 Y122.429 E26.09239
G1 X108.922 Y122.499
G0 F1500 X108.287 Y122.429
G1 F900 X103.07 Y117.212 E26.33778
G1 X103 Y117.142
G0 F1500 X103.07 Y117.777
G1 F900 X107.721 Y122.429 E26.55657
