;FLAVOR:Marlin
;TIME:3008
;Filament used: 0.892048m
;Layer height: 0.12
;Generated with Cura_SteamEngine 3.1.0
M82 ; absolute extrusion mode
G28 ;Home
G29 ; AutoLevel
M190 S60 ; set the bed temperature and continue on
M104 S200; set the extruder temperature and continue on
M109 S200; set the extruder temperature and continue on
G1 Z15.0 F6000 ;Move the platform down 15mm
G92 E0
G1 E5 ; extrude 5 mm of filament
G4 S5 ; wait 5 seconds for extrude
G1 F12000 E5 ; move 15 mm up, fast, while extruding 5mm
G92 E0 ; reset extruder
M117 Printing...;Put printing message on LCD screen
;LAYER_COUNT:142
;LAYER:0
M107
G0 F1500 X98.313 Y98.38 Z0.2
;TYPE:SKIRT
G1 F900 X99.187 Y97.562 E0.03982
G1 X99.489 Y97.305 E0.053
G1 X100.485 Y96.543 E0.09471
G1 X100.812 Y96.318 E0.10792
G1 X101.86 Y95.67 E0.1489
G1 X102.265 Y95.451 E0.16421
G1 X103.823 Y94.72 E0.22145
G1 X104.389 Y94.505 E0.24159
G1 X106.252 Y93.955 E0.3062
G1 X106.744 Y93.843 E0.32298
G1 X107.951 Y93.647 E0.36365
G1 X108.338 Y93.603 E0.3766
G1 X109.566 Y93.525 E0.41753
G1 X109.957 Y93.519 E0.43054
G1 X111.185 Y93.561 E0.4714
G1 X111.574 Y93.594 E0.48439
G1 X112.772 Y93.753 E0.52458
G1 X113.321 Y93.865 E0.54322
G1 X115.479 Y94.467 E0.61774
G1 X116.023 Y94.662 E0.63696
G1 X117.351 Y95.25 E0.68526
G1 X117.739 Y95.448 E0.69975
G1 X118.784 Y96.054 E0.73993
G1 X119.113 Y96.267 E0.75296
G1 X120.118 Y96.99 E0.79414
G1 X120.427 Y97.236 E0.80728
G1 X121.345 Y98.045 E0.84797
G1 X121.621 Y98.313 E0.86077
G1 X122.437 Y99.185 E0.90049
G1 X122.692 Y99.487 E0.91364
G1 X123.459 Y100.489 E0.95561
G1 X123.684 Y100.815 E0.96878
G1 X124.324 Y101.849 E1.00923
G1 X124.515 Y102.195 E1.02237
G1 X125.063 Y103.314 E1.06381
G1 X125.218 Y103.673 E1.07682
G1 X125.64 Y104.802 E1.11691
G1 X125.757 Y105.168 E1.12969
G1 X126.071 Y106.342 E1.17011
G1 X126.155 Y106.732 E1.18338
G1 X126.353 Y107.946 E1.22429
G1 X126.397 Y108.337 E1.23738
G1 X126.475 Y109.566 E1.27833
G1 X126.481 Y109.956 E1.29131
G1 X126.439 Y111.185 E1.33221
G1 X126.406 Y111.576 E1.34526
G1 X126.246 Y112.778 E1.38559
G1 X126.18 Y113.143 E1.39793
G1 X125.948 Y114.156 E1.43249
G1 X125.853 Y114.5 E1.44436
G1 X125.469 Y115.681 E1.48567
G1 X125.321 Y116.066 E1.49938
G1 X124.762 Y117.326 E1.54523
G1 X124.569 Y117.705 E1.55938
G1 X123.949 Y118.778 E1.60059
G1 X123.733 Y119.113 E1.61385
G1 X123.01 Y120.118 E1.65503
G1 X122.764 Y120.427 E1.66817
G1 X121.955 Y121.345 E1.70886
G1 X121.687 Y121.621 E1.72166
G1 X120.814 Y122.438 E1.76143
G1 X120.512 Y122.694 E1.77459
G1 X119.515 Y123.457 E1.81635
G1 X119.191 Y123.68 E1.82943
G1 X118.155 Y124.322 E1.86997
G1 X117.807 Y124.514 E1.88319
G1 X116.696 Y125.058 E1.92433
G1 X116.341 Y125.211 E1.93719
G1 X115.202 Y125.638 E1.97765
G1 X114.83 Y125.758 E1.99065
G1 X113.647 Y126.074 E2.03138
G1 X113.256 Y126.157 E2.04467
G1 X112.049 Y126.353 E2.08534
G1 X111.662 Y126.397 E2.0983
G1 X110.434 Y126.475 E2.13922
G1 X110.043 Y126.481 E2.15223
G1 X108.815 Y126.439 E2.1931
G1 X108.426 Y126.406 E2.20608
G1 X107.228 Y126.247 E2.24628
G1 X106.861 Y126.181 E2.25868
G1 X105.835 Y125.946 E2.29369
G1 X105.49 Y125.851 E2.30559
G1 X104.332 Y125.474 E2.34609
G1 X103.972 Y125.337 E2.3589
G1 X102.896 Y124.868 E2.39794
G1 X102.555 Y124.7 E2.41059
G1 X101.458 Y124.092 E2.4523
G1 X101.117 Y123.879 E2.46568
G1 X100.114 Y123.183 E2.50628
G1 X99.806 Y122.947 E2.51919
G1 X98.876 Y122.158 E2.55975
G1 X98.589 Y121.889 E2.57283
G1 X97.727 Y120.998 E2.61407
G1 X97.462 Y120.695 E2.62745
G1 X96.692 Y119.719 E2.6688
G1 X96.466 Y119.402 E2.68175
G1 X95.824 Y118.402 E2.72128
G1 X95.63 Y118.066 E2.73418
G1 X95.063 Y116.96 E2.77552
G1 X94.902 Y116.604 E2.78851
G1 X94.467 Y115.502 E2.82792
G1 X94.343 Y115.135 E2.8408
G1 X93.992 Y113.91 E2.88319
G1 X93.9 Y113.517 E2.89661
G1 X93.686 Y112.328 E2.93679
G1 X93.636 Y111.941 E2.94977
G1 X93.537 Y110.714 E2.99071
G1 X93.525 Y110.323 E3.00372
G1 X93.546 Y109.109 E3.04411
G1 X93.574 Y108.698 E3.05781
G1 X93.746 Y107.274 E3.10552
G1 X93.823 Y106.841 E3.12014
G1 X94.1 Y105.66 E3.16049
G1 X94.207 Y105.285 E3.17346
G1 X94.61 Y104.1 E3.21509
G1 X94.755 Y103.734 E3.22818
G1 X95.252 Y102.64 E3.26815
G1 X95.434 Y102.287 E3.28136
G1 X96.064 Y101.201 E3.32312
G1 X96.278 Y100.87 E3.33623
G1 X96.991 Y99.88 E3.37681
G1 X97.236 Y99.573 E3.38987
G1 X98.045 Y98.655 E3.43057
G1 X98.313 Y98.38 E3.44334
G0 F1500 X98.586 Y98.672
G1 F900 X99.46 Y97.854 E3.48315
G1 X99.733 Y97.623 E3.49505
G1 X100.729 Y96.861 E3.53676
G1 X101.023 Y96.658 E3.54864
G1 X102.071 Y96.01 E3.58962
G1 X102.435 Y95.813 E3.60339
G1 X103.993 Y95.082 E3.66063
G1 X104.503 Y94.888 E3.67878
G1 X106.366 Y94.338 E3.74338
G1 X106.808 Y94.238 E3.75846
G1 X108.015 Y94.042 E3.79913
G1 X108.364 Y94.002 E3.81081
G1 X109.592 Y93.924 E3.85174
G1 X109.943 Y93.919 E3.86341
G1 X111.171 Y93.961 E3.90428
G1 X111.522 Y93.99 E3.91599
G1 X112.72 Y94.149 E3.95619
G1 X113.213 Y94.25 E3.97293
G1 X115.371 Y94.852 E4.04744
G1 X115.861 Y95.028 E4.06476
G1 X117.189 Y95.616 E4.11307
G1 X117.538 Y95.794 E4.1261
G1 X118.583 Y96.4 E4.16627
G1 X118.879 Y96.592 E4.17801
G1 X119.884 Y97.315 E4.21919
G1 X120.162 Y97.536 E4.231
G1 X121.08 Y98.345 E4.2717
G1 X121.329 Y98.586 E4.28322
G1 X122.145 Y99.458 E4.32294
G1 X122.375 Y99.73 E4.33479
G1 X123.142 Y100.732 E4.37676
G1 X123.344 Y101.025 E4.3886
G1 X123.984 Y102.059 E4.42904
G1 X124.156 Y102.371 E4.44089
G1 X124.704 Y103.49 E4.48233
G1 X124.843 Y103.813 E4.49403
G1 X125.265 Y104.942 E4.53412
G1 X125.371 Y105.272 E4.54564
G1 X125.685 Y106.446 E4.58606
G1 X125.76 Y106.797 E4.598
G1 X125.958 Y108.011 E4.63891
G1 X125.998 Y108.362 E4.65066
G1 X126.076 Y109.591 E4.69162
G1 X126.081 Y109.942 E4.7033
G1 X126.039 Y111.171 E4.7442
G1 X126.01 Y111.523 E4.75595
G1 X125.85 Y112.725 E4.79628
G1 X125.79 Y113.054 E4.8074
G1 X125.558 Y114.067 E4.84196
G1 X125.473 Y114.376 E4.85262
G1 X125.089 Y115.557 E4.89393
G1 X124.956 Y115.904 E4.90629
G1 X124.397 Y117.164 E4.95214
G1 X124.223 Y117.505 E4.96487
G1 X123.603 Y118.578 E5.00609
G1 X123.408 Y118.879 E5.01801
G1 X122.685 Y119.884 E5.05919
G1 X122.464 Y120.162 E5.071
G1 X121.655 Y121.08 E5.1117
G1 X121.414 Y121.328 E5.1232
G1 X120.541 Y122.145 E5.16297
G1 X120.269 Y122.376 E5.17484
G1 X119.272 Y123.139 E5.2166
G1 X118.98 Y123.34 E5.22839
G1 X117.944 Y123.982 E5.26892
G1 X117.631 Y124.155 E5.28082
G1 X116.52 Y124.699 E5.32196
G1 X116.201 Y124.837 E5.33352
G1 X115.062 Y125.264 E5.37398
G1 X114.727 Y125.371 E5.38568
G1 X113.544 Y125.687 E5.4264
G1 X113.192 Y125.762 E5.43837
G1 X111.985 Y125.958 E5.47905
G1 X111.636 Y125.998 E5.49073
G1 X110.408 Y126.076 E5.53165
G1 X110.057 Y126.081 E5.54333
G1 X108.829 Y126.039 E5.5842
G1 X108.478 Y126.01 E5.59591
G1 X107.28 Y125.851 E5.63611
G1 X106.95 Y125.791 E5.64726
G1 X105.924 Y125.556 E5.68227
G1 X105.614 Y125.47 E5.69297
G1 X104.456 Y125.093 E5.73348
G1 X104.132 Y124.97 E5.745
G1 X103.056 Y124.501 E5.78404
G1 X102.749 Y124.35 E5.79542
G1 X101.652 Y123.742 E5.83714
G1 X101.345 Y123.551 E5.84916
G1 X100.342 Y122.855 E5.88977
G1 X100.065 Y122.642 E5.90139
G1 X99.135 Y121.853 E5.94195
G1 X98.877 Y121.611 E5.95372
G1 X98.015 Y120.72 E5.99495
G1 X97.776 Y120.447 E6.00702
G1 X97.006 Y119.471 E6.04837
G1 X96.803 Y119.186 E6.06001
G1 X96.161 Y118.186 E6.09953
G1 X95.986 Y117.883 E6.11117
G1 X95.419 Y116.777 E6.15251
G1 X95.274 Y116.457 E6.16419
G1 X94.839 Y115.355 E6.2036
G1 X94.727 Y115.025 E6.21519
G1 X94.376 Y113.8 E6.25757
G1 X94.294 Y113.446 E6.26966
G1 X94.08 Y112.257 E6.30984
G1 X94.035 Y111.909 E6.32151
G1 X93.936 Y110.682 E6.36245
G1 X93.925 Y110.33 E6.37417
G1 X93.946 Y109.116 E6.41455
G1 X93.971 Y108.746 E6.42688
G1 X94.143 Y107.322 E6.47459
G1 X94.212 Y106.932 E6.48776
G1 X94.489 Y105.751 E6.52811
G1 X94.586 Y105.414 E6.53977
G1 X94.989 Y104.229 E6.5814
G1 X95.119 Y103.899 E6.5932
G1 X95.616 Y102.805 E6.63317
G1 X95.78 Y102.488 E6.64504
G1 X96.41 Y101.402 E6.68679
G1 X96.603 Y101.104 E6.6986
G1 X97.316 Y100.114 E6.73918
G1 X97.536 Y99.838 E6.75092
G1 X98.345 Y98.92 E6.79162
G1 X98.586 Y98.672 E6.80312
G0 F1500 X98.859 Y98.964
G1 F900 X99.733 Y98.146 E6.84293
G1 X99.976 Y97.94 E6.85353
G1 X100.972 Y97.178 E6.89524
G1 X101.233 Y96.998 E6.90579
G1 X102.281 Y96.35 E6.94677
G1 X102.605 Y96.175 E6.95902
G1 X104.163 Y95.444 E7.01625
G1 X104.616 Y95.272 E7.03237
G1 X106.479 Y94.722 E7.09698
G1 X106.872 Y94.632 E7.11039
G1 X108.079 Y94.436 E7.15106
G1 X108.389 Y94.401 E7.16144
G1 X109.617 Y94.323 E7.20236
G1 X109.929 Y94.319 E7.21274
G1 X111.157 Y94.361 E7.25361
G1 X111.469 Y94.387 E7.26402
G1 X112.667 Y94.546 E7.30421
G1 X113.106 Y94.636 E7.31912
G1 X115.264 Y95.238 E7.39364
G1 X115.7 Y95.394 E7.40904
G1 X117.028 Y95.982 E7.45734
G1 X117.337 Y96.14 E7.46889
G1 X118.382 Y96.746 E7.50906
G1 X118.646 Y96.916 E7.51951
G1 X119.651 Y97.639 E7.56068
G1 X119.898 Y97.836 E7.57119
G1 X120.816 Y98.645 E7.61189
G1 X121.037 Y98.86 E7.62215
G1 X121.853 Y99.732 E7.66187
G1 X122.057 Y99.973 E7.67237
G1 X122.824 Y100.975 E7.71434
G1 X123.004 Y101.236 E7.72488
G1 X123.644 Y102.27 E7.76533
G1 X123.797 Y102.547 E7.77585
G1 X124.345 Y103.666 E7.81729
G1 X124.468 Y103.953 E7.82768
G1 X124.89 Y105.082 E7.86777
G1 X124.984 Y105.375 E7.878
G1 X125.298 Y106.549 E7.91842
G1 X125.365 Y106.861 E7.92904
G1 X125.563 Y108.075 E7.96995
G1 X125.599 Y108.387 E7.98039
G1 X125.677 Y109.616 E8.02135
G1 X125.681 Y109.928 E8.03173
G1 X125.639 Y111.157 E8.07263
G1 X125.613 Y111.47 E8.08308
G1 X125.453 Y112.672 E8.12341
G1 X125.4 Y112.964 E8.13328
G1 X125.168 Y113.977 E8.16784
G1 X125.092 Y114.252 E8.17733
G1 X124.708 Y115.433 E8.21864
G1 X124.59 Y115.742 E8.22964
G1 X124.031 Y117.002 E8.27549
G1 X123.877 Y117.305 E8.28679
G1 X123.257 Y118.378 E8.32801
G1 X123.084 Y118.646 E8.33862
G1 X122.361 Y119.651 E8.3798
G1 X122.164 Y119.898 E8.3903
G1 X121.355 Y120.816 E8.431
G1 X121.141 Y121.036 E8.44121
G1 X120.268 Y121.853 E8.48098
G1 X120.026 Y122.058 E8.49153
G1 X119.029 Y122.821 E8.53328
G1 X118.77 Y123 E8.54375
G1 X117.734 Y123.642 E8.58429
G1 X117.455 Y123.796 E8.59489
G1 X116.344 Y124.34 E8.63603
G1 X116.06 Y124.462 E8.64632
G1 X114.921 Y124.889 E8.68677
G1 X114.624 Y124.985 E8.69715
G1 X113.441 Y125.301 E8.73788
G1 X113.128 Y125.368 E8.74853
G1 X111.921 Y125.564 E8.7892
G1 X111.611 Y125.599 E8.79957
G1 X110.383 Y125.677 E8.8405
G1 X110.071 Y125.681 E8.85088
G1 X108.843 Y125.639 E8.89175
G1 X108.531 Y125.613 E8.90216
G1 X107.333 Y125.454 E8.94235
G1 X107.04 Y125.401 E8.95226
G1 X106.014 Y125.166 E8.98727
G1 X105.737 Y125.09 E8.99682
G1 X104.579 Y124.713 E9.03732
G1 X104.291 Y124.603 E9.04758
G1 X103.215 Y124.134 E9.08662
G1 X102.943 Y124 E9.0967
G1 X101.846 Y123.392 E9.13842
G1 X101.573 Y123.222 E9.14911
G1 X100.57 Y122.526 E9.18972
G1 X100.324 Y122.337 E9.20004
G1 X99.394 Y121.548 E9.2406
G1 X99.164 Y121.333 E9.25107
G1 X98.302 Y120.442 E9.29231
G1 X98.09 Y120.199 E9.30303
G1 X97.32 Y119.223 E9.34438
G1 X97.139 Y118.97 E9.35473
G1 X96.497 Y117.97 E9.39425
G1 X96.342 Y117.701 E9.40458
G1 X95.775 Y116.595 E9.44592
G1 X95.647 Y116.31 E9.45631
G1 X95.212 Y115.208 E9.49571
G1 X95.112 Y114.914 E9.50604
G1 X94.761 Y113.689 E9.54842
G1 X94.688 Y113.375 E9.55915
G1 X94.474 Y112.186 E9.59933
G1 X94.433 Y111.876 E9.60973
G1 X94.334 Y110.649 E9.65067
G1 X94.324 Y110.337 E9.66105
G1 X94.345 Y109.123 E9.70144
G1 X94.368 Y108.794 E9.71241
G1 X94.54 Y107.37 E9.76011
G1 X94.602 Y107.023 E9.77184
G1 X94.879 Y105.842 E9.81218
G1 X94.964 Y105.543 E9.82252
G1 X95.367 Y104.358 E9.86415
G1 X95.484 Y104.064 E9.87468
G1 X95.981 Y102.97 E9.91464
G1 X96.126 Y102.688 E9.92519
G1 X96.756 Y101.602 E9.96695
G1 X96.927 Y101.338 E9.97741
G1 X97.64 Y100.348 E10.01799
G1 X97.836 Y100.102 E10.02845
G1 X98.645 Y99.184 E10.06915
G1 X98.859 Y98.964 E10.07935
G1 F2700 E3.57935
G0 F1500 X100.822 Y100.615
G0 X100.855 Y100.643
G0 X102.915 Y102.377
G0 X102.948 Y102.405
G0 X103.546 Y102.909
;TYPE:SUPPORT
G1 F2700 E10.07935
G1 F900 X103.91 Y102.581 E10.09565
G1 X104.67 Y102.022 E10.12703
G1 X105.495 Y101.523 E10.1591
G1 X106.424 Y101.095 E10.19312
G1 X107.214 Y100.813 E10.22102
G1 X107.875 Y100.648 E10.24368
G1 X108.968 Y100.47 E10.28051
G1 X110.16 Y100.411 E10.3202
G1 X111.021 Y100.461 E10.34889
G1 X112.055 Y100.629 E10.38373
G1 X112.788 Y100.815 E10.40888
G1 X113.777 Y101.178 E10.44392
G1 X114.533 Y101.54 E10.4718
G1 X115.331 Y102.017 E10.50272
G1 X116.1 Y102.588 E10.53458
G1 X116.746 Y103.175 E10.56361
G1 X117.467 Y103.976 E10.59946
G1 X117.966 Y104.647 E10.62727
G1 X118.442 Y105.433 E10.65783
G1 X118.925 Y106.479 E10.69615
G1 X119.189 Y107.222 E10.72238
G1 X119.356 Y107.89 E10.74528
G1 X119.545 Y109.008 E10.78299
G1 X119.596 Y110.043 E10.81746
G1 X119.548 Y110.969 E10.8483
G1 X119.391 Y111.96 E10.88167
G1 X119.185 Y112.793 E10.91021
G1 X118.877 Y113.657 E10.94072
G1 X118.444 Y114.557 E10.97394
G1 X117.992 Y115.315 E11.00329
G1 X117.479 Y116.009 E11.03199
G1 X116.788 Y116.79 E11.06668
G1 X116.091 Y117.419 E11.0979
G1 X115.404 Y117.929 E11.12636
G1 X114.533 Y118.463 E11.16034
G1 X113.638 Y118.881 E11.1932
G1 X112.742 Y119.198 E11.22481
G1 X111.892 Y119.409 E11.25394
G1 X111.011 Y119.544 E11.28358
G1 X110.041 Y119.588 E11.31588
G1 X108.953 Y119.533 E11.35211
G1 X107.969 Y119.376 E11.38525
G1 X107.233 Y119.193 E11.41048
G1 X106.361 Y118.881 E11.44128
G1 X105.479 Y118.469 E11.47366
G1 X104.696 Y117.997 E11.50407
G1 X103.894 Y117.404 E11.53724
G1 X103.207 Y116.785 E11.568
G1 X102.597 Y116.109 E11.59828
G1 X102.015 Y115.329 E11.63065
G1 X101.55 Y114.543 E11.66103
G1 X101.138 Y113.684 E11.69271
G1 X100.814 Y112.764 E11.72515
G1 X100.715 Y112.399 E11.73773
G1 X100.575 Y111.804 E11.75806
G1 X100.475 Y111.101 E11.78168
G1 X100.407 Y110.076 E11.81585
G1 X100.457 Y108.991 E11.85197
G1 X100.593 Y108.119 E11.88133
G1 X100.806 Y107.254 E11.91096
G1 X101.144 Y106.299 E11.94465
G1 X101.548 Y105.452 E11.97586
G1 X102.024 Y104.66 E12.0066
G1 X102.576 Y103.912 E12.03751
G1 X103.546 Y102.909 E12.08392
G0 F1500 X106.754 Y106.184
G1 F900 X106.195 Y106.755 E12.1105
G1 X105.666 Y107.509 E12.14114
G1 X105.296 Y108.282 E12.16964
G1 X105.07 Y109.14 E12.19915
G1 X105 Y109.923 E12.2253
G1 X105.075 Y110.886 E12.25742
G1 X105.283 Y111.68 E12.28472
G1 X105.653 Y112.478 E12.31398
G1 X106.189 Y113.242 E12.34502
G1 X106.759 Y113.816 E12.37192
G1 X107.516 Y114.338 E12.40251
G1 X108.286 Y114.704 E12.43086
G1 X109.149 Y114.931 E12.46054
G1 X110 Y115.007 E12.48896
G1 X110.851 Y114.931 E12.51738
G1 X111.714 Y114.704 E12.54706
G1 X112.484 Y114.338 E12.57541
G1 X113.241 Y113.816 E12.606
G1 X113.811 Y113.242 E12.6329
G1 X114.347 Y112.478 E12.66394
G1 X114.717 Y111.68 E12.6932
G1 X114.925 Y110.886 E12.7205
G1 X115 Y109.923 E12.75263
G1 X114.93 Y109.14 E12.77877
G1 X114.704 Y108.282 E12.80828
G1 X114.334 Y107.509 E12.83679
G1 X113.805 Y106.755 E12.86742
G1 X113.246 Y106.184 E12.894
G1 X112.512 Y105.68 E12.92361
G1 X111.719 Y105.298 E12.95289
G1 X110.879 Y105.074 E12.9818
G1 X110 Y105 E13.01114
G1 X109.121 Y105.074 E13.04048
G1 X108.281 Y105.298 E13.0694
G1 X107.488 Y105.68 E13.09867
G1 X106.754 Y106.184 E13.12829
G0 F1500 X108 Y105.256
G1 F900 X108 Y100.789 E13.27686
G0 F1500 X112 Y100.783
G1 F900 X112 Y105.255 E13.4256
G0 F1500 X114.747 Y108
G1 F900 X119.213 Y108 E13.57414
G0 F1500 X119.215 Y112
G1 F900 X114.746 Y112 E13.72278
G0 F1500 X112 Y114.745
G1 F900 X112 Y119.218 E13.87155
G0 F1500 X108 Y119.218
G1 F900 X108 Y114.746 E14.02029
G0 F1500 X105.255 Y112
G1 F900 X100.786 Y112 E14.16893
G0 F1500 X100.787 Y108
G1 F900 X105.252 Y108 E14.31744
G0 F1500 X102.713 Y104
G1 F900 X117.273 Y104 E14.8017
G0 F1500 X116 Y102.714
G1 F900 X116 Y117.286 E15.28637
G0 F1500 X117.271 Y116
G1 F900 X102.715 Y116 E15.7705
G0 F1500 X104 Y117.283
G1 F900 X104 Y102.715 E16.25504
G1 F2700 E9.75504
G0 F1500 X106.997 Y100.107
G0 X106.632 Y98.896
G0 X108.854 Y98.353
G0 X108.863 Y98.452
;TYPE:WALL-INNER
G1 F2700 E16.25504
G1 F900 X107.737 Y98.62 E16.2929
G1 X106.632 Y98.896 E16.33078
G1 X105.56 Y99.28 E16.36866
G1 X104.53 Y99.767 E16.40655
G1 X103.554 Y100.353 E16.44442
G1 X102.639 Y101.03 E16.48227
G1 X101.795 Y101.795 E16.52016
G1 X101.03 Y102.639 E16.55805
G1 X100.353 Y103.554 E16.5959
G1 X99.767 Y104.53 E16.63377
G1 X99.28 Y105.559 E16.67163
G1 X98.896 Y106.632 E16.70954
G1 X98.62 Y107.736 E16.74739
